%
O1001
(T3 D=10. CR=0. - ZMIN=-18. - FLAT END MILL)
N10 G90 G94 G17 G49 G40 G80
N15 G21
N20 G28 G91 Z0.
N25 G90

(2D ADAPTIVE1)
N30 T3 M06
N35 S3000 M03
N40 G54
N45 G00 X-0.783 Y-10.533
N50 G43 Z15. H03
N55 G00 Z5.
N60 Z0.
N65 G01 Z-1. F400.
N70 Z-3.
N75 G03 X0. Y-5.089 I-24.731 J6.335
N80 G01 Y45.474 F800.
N85 Y94.461
N90 X0.049 Y94.743
N95 X0.242 Y95.282
N100 X0.931 Y96.198
N105 X1.834 Y96.904
N110 X2.843 Y97.448
N115 X3.909 Y97.867
N120 X5.009 Y98.19
N125 X6.127 Y98.439
N130 X7.257 Y98.631
N135 X8.393 Y98.78
N140 X9.533 Y98.894
N145 X10.676 Y98.982
N150 X11.82 Y99.049
N155 X12.964 Y99.102
N160 X14.11 Y99.142
N165 X15.255 Y99.173
N170 X16.401 Y99.197
N175 X17.546 Y99.215
N180 X18.692 Y99.23
N185 X19.838 Y99.241
N190 X20.984 Y99.249
N195 X22.13 Y99.255
N200 X23.276 Y99.261
N205 X25.568 Y99.267
N210 X29.005 Y99.273
N215 X33.589 Y99.276
N220 X46.194 Y99.277
N225 X50.777
N230 X90.024
N235 X90.31 Y99.249
N240 X90.862 Y99.096
N245 X91.81 Y98.453
N250 X92.541 Y97.57
N255 X93.105 Y96.572
N260 X93.539 Y95.512
N265 X93.874 Y94.416
N270 X94.132 Y93.3
N275 X94.331 Y92.171
N280 X94.484 Y91.036
N285 X94.602 Y89.896
N290 X94.694 Y88.754
N295 X94.764 Y87.61
N300 X94.818 Y86.465
N305 X94.86 Y85.32
N310 X94.892 Y84.175
N315 X94.917 Y83.029
N320 X94.936 Y81.883
N325 X94.95 Y80.737
N330 X94.962 Y79.592
N335 X94.971 Y78.446
N340 X94.977 Y77.3
N345 X94.983 Y76.154
N350 X94.99 Y73.862
N355 X94.994 Y71.57
N360 X94.997 Y68.133
N365 X94.999 Y61.257
N370 X95. Y39.485
N375 Y4.822
N380 X94.951 Y4.539
N385 X94.758 Y4.
N390 X94.07 Y3.083
N395 X93.168 Y2.377
N400 X92.16 Y1.832
N405 X91.094 Y1.412
N410 X89.994 Y1.088
N415 X88.876 Y0.839
N420 X87.746 Y0.647
N425 X86.61 Y0.499
N430 X85.47 Y0.384
N435 X84.327 Y0.296
N440 X83.183 Y0.228
N445 X82.039 Y0.176
N450 X80.894 Y0.136
N455 X79.748 Y0.105
N460 X78.602 Y0.081
N465 X77.457 Y0.062
N470 X76.311 Y0.048
N475 X75.165 Y0.037
N480 X74.019 Y0.028
N485 X72.873 Y0.022
N490 X71.727 Y0.017
N495 X69.436 Y0.01
N500 X65.998 Y0.005
N505 X61.414 Y0.002
N510 X48.809 Y0.
N515 X30.475
N520 X9.849
N525 X9.293 Y0.14
N530 X8.309 Y0.727
N535 X7.551 Y1.586
N540 X6.966 Y2.572
N545 X6.516 Y3.625
N550 X6.168 Y4.717
N555 X5.901 Y5.832
N560 X5.694 Y6.959
N565 X5.535 Y8.094
N570 X5.412 Y9.233
N575 X5.318 Y10.375
N580 X5.245 Y11.519
N585 X5.189 Y12.663
N590 X5.146 Y13.808
N595 X5.112 Y14.954
N600 X5.087 Y16.099
N605 X5.067 Y17.245
N610 X5.051 Y18.391
N615 X5.04 Y19.537
N620 X5.031 Y20.682
N625 X5.024 Y21.828
N630 X5.018 Y22.974
N635 X5.011 Y25.266
N640 X5.006 Y27.558
N645 X5.005 Y28.704
N650 X5.002 Y33.287
N655 X5. Y44.746
N660 Y79.123
N665 Y88.29
N670 X5.095 Y88.855
N675 X5.52 Y89.92
N680 X6.249 Y90.804
N685 X7.144 Y91.52
N690 X8.136 Y92.093
N695 X9.187 Y92.549
N700 X10.274 Y92.912
N705 X11.383 Y93.2
N710 X12.506 Y93.428
N715 X13.638 Y93.608
N720 X14.775 Y93.75
N725 X15.915 Y93.862
N730 X17.058 Y93.951
N735 X18.202 Y94.02
N740 X19.346 Y94.075
N745 X20.491 Y94.119
N750 X21.637 Y94.153
N755 X22.782 Y94.179
N760 X23.928 Y94.2
N765 X25.074 Y94.217
N770 X26.22 Y94.23
N775 X27.365 Y94.24
N780 X28.511 Y94.248
N785 X29.657 Y94.255
N790 X30.803 Y94.26
N795 X33.095 Y94.266
N800 X36.533 Y94.272
N805 X41.116 Y94.275
N810 X44.554 Y94.276
N815 X70.91 Y94.277
N820 X84.088
N825 X84.649 Y94.164
N830 X85.703 Y93.715
N835 X86.577 Y92.973
N840 X87.282 Y92.07
N845 X87.847 Y91.073
N850 X88.297 Y90.019
N855 X88.655 Y88.931
N860 X88.939 Y87.821
N865 X89.163 Y86.697
N870 X89.34 Y85.565
N875 X89.48 Y84.427
N880 X89.591 Y83.287
N885 X89.678 Y82.144
N890 X89.747 Y81.
N895 X89.801 Y79.856
N900 X89.844 Y78.711
N905 X89.877 Y77.565
N910 X89.904 Y76.42
N915 X89.924 Y75.274
N920 X89.941 Y74.128
N925 X89.953 Y72.982
N930 X89.963 Y71.836
N935 X89.971 Y70.691
N940 X89.978 Y69.545
N945 X89.982 Y68.399
N950 X89.989 Y66.107
N955 X89.995 Y62.669
N960 X89.998 Y58.086
N965 X90. Y47.773
N970 Y35.168
N975 Y11.104
N980 X89.935 Y10.535
N985 X89.551 Y9.455
N990 X88.843 Y8.554
N995 X87.961 Y7.822
N1000 X86.976 Y7.236
N1005 X85.93 Y6.769
N1010 X84.846 Y6.398
N1015 X83.739 Y6.104
N1020 X82.617 Y5.871
N1025 X81.486 Y5.686
N1030 X80.349 Y5.541
N1035 X79.209 Y5.426
N1040 X78.067 Y5.335
N1045 X76.923 Y5.264
N1050 X75.778 Y5.207
N1055 X74.633 Y5.163
N1060 X73.488 Y5.128
N1065 X72.342 Y5.101
N1070 X71.197 Y5.079
N1075 X70.051 Y5.062
N1080 X68.905 Y5.049
N1085 X67.759 Y5.038
N1090 X66.613 Y5.03
N1095 X65.467 Y5.023
N1100 X64.322 Y5.018
N1105 X62.03 Y5.011
N1110 X58.592 Y5.005
N1115 X54.008 Y5.002
N1120 X43.695 Y5.
N1125 X16.194
N1130 X15.622 Y5.042
N1135 X14.532 Y5.394
N1140 X13.617 Y6.084
N1145 X12.874 Y6.957
N1150 X12.278 Y7.935
N1155 X11.803 Y8.978
N1160 X11.425 Y10.06
N1165 X11.125 Y11.166
N1170 X10.887 Y12.287
N1175 X10.7 Y13.417
N1180 X10.551 Y14.553
N1185 X10.434 Y15.693
N1190 X10.342 Y16.836
N1195 X10.269 Y17.979
N1200 X10.211 Y19.124
N1205 X10.166 Y20.269
N1210 X10.131 Y21.414
N1215 X10.103 Y22.559
N1220 X10.08 Y23.705
N1225 X10.063 Y24.851
N1230 X10.05 Y25.997
N1235 X10.039 Y27.143
N1240 X10.03 Y28.288
N1245 X10.024 Y29.434
N1250 X10.019 Y30.58
N1255 X10.011 Y32.872
N1260 X10.007 Y35.164
N1265 X10.003 Y38.602
N1270 X10.001 Y45.477
N1275 X10. Y54.644
N1280 Y83.292
N1285 X10.348 Y84.384
N1290 X11.007 Y85.32
N1295 X11.852 Y86.095
N1300 X12.808 Y86.726
N1305 X13.834 Y87.237
N1310 X14.904 Y87.647
N1315 X16.002 Y87.977
N1320 X17.117 Y88.24
N1325 X18.243 Y88.451
N1330 X19.377 Y88.62
N1335 X20.515 Y88.754
N1340 X21.655 Y88.861
N1345 X22.798 Y88.947
N1350 X23.942 Y89.014
N1355 X25.087 Y89.069
N1360 X26.232 Y89.112
N1365 X27.377 Y89.146
N1370 X28.523 Y89.173
N1375 X29.668 Y89.195
N1380 X30.814 Y89.212
N1385 X31.96 Y89.225
N1390 X33.106 Y89.236
N1395 X34.252 Y89.245
N1400 X35.398 Y89.252
N1405 X36.543 Y89.257
N1410 X38.835 Y89.265
N1415 X41.127 Y89.269
N1420 X44.565 Y89.273
N1425 X50.294 Y89.276
N1430 X69.775 Y89.277
N1435 X78.942
N1440 X80.041 Y88.955
N1445 X80.989 Y88.311
N1450 X81.774 Y87.476
N1455 X82.413 Y86.525
N1460 X82.93 Y85.502
N1465 X83.347 Y84.435
N1470 X83.681 Y83.339
N1475 X83.948 Y82.224
N1480 X84.162 Y81.099
N1485 X84.333 Y79.965
N1490 X84.469 Y78.828
N1495 X84.578 Y77.687
N1500 X84.665 Y76.544
N1505 X84.733 Y75.4
N1510 X84.788 Y74.256
N1515 X84.832 Y73.111
N1520 X84.867 Y71.965
N1525 X84.894 Y70.82
N1530 X84.916 Y69.674
N1535 X84.933 Y68.528
N1540 X84.947 Y67.383
N1545 X84.958 Y66.237
N1550 X84.967 Y65.091
N1555 X84.974 Y63.945
N1560 X84.979 Y62.799
N1565 X84.987 Y60.507
N1570 X84.992 Y58.215
N1575 X84.996 Y54.778
N1580 X84.999 Y49.048
N1585 X85. Y39.881
N1590 Y16.39
N1595 X84.905 Y15.825
N1600 X84.511 Y14.749
N1605 X83.821 Y13.834
N1610 X82.959 Y13.08
N1615 X81.991 Y12.467
N1620 X80.957 Y11.972
N1625 X79.882 Y11.574
N1630 X78.781 Y11.256
N1635 X77.664 Y11.001
N1640 X76.537 Y10.797
N1645 X75.402 Y10.634
N1650 X74.264 Y10.505
N1655 X73.123 Y10.401
N1660 X71.98 Y10.319
N1665 X70.836 Y10.253
N1670 X69.691 Y10.201
N1675 X68.546 Y10.16
N1680 X67.4 Y10.127
N1685 X66.255 Y10.1
N1690 X65.109 Y10.08
N1695 X63.963 Y10.063
N1700 X62.817 Y10.05
N1705 X61.672 Y10.04
N1710 X60.526 Y10.031
N1715 X59.38 Y10.025
N1720 X58.234 Y10.02
N1725 X55.942 Y10.012
N1730 X52.504 Y10.006
N1735 X47.921 Y10.002
N1740 X38.754 Y10.
N1745 X21.565
N1750 X20.995 Y10.06
N1755 X19.899 Y10.394
N1760 X18.959 Y11.049
N1765 X18.182 Y11.891
N1770 X17.55 Y12.847
N1775 X17.039 Y13.873
N1780 X16.628 Y14.942
N1785 X16.299 Y16.04
N1790 X16.035 Y17.155
N1795 X15.825 Y18.282
N1800 X15.656 Y19.415
N1805 X15.522 Y20.553
N1810 X15.415 Y21.694
N1815 X15.33 Y22.837
N1820 X15.262 Y23.981
N1825 X15.208 Y25.125
N1830 X15.165 Y26.27
N1835 X15.131 Y27.416
N1840 X15.104 Y28.561
N1845 X15.082 Y29.707
N1850 X15.065 Y30.853
N1855 X15.052 Y31.999
N1860 X15.041 Y33.144
N1865 X15.032 Y34.29
N1870 X15.026 Y35.436
N1875 X15.02 Y36.582
N1880 X15.013 Y38.874
N1885 X15.008 Y41.166
N1890 X15.004 Y44.603
N1895 X15.001 Y50.333
N1900 X15. Y69.813
N1905 Y77.834
N1910 X15.237 Y78.956
N1915 X15.821 Y79.942
N1920 X16.614 Y80.769
N1925 X17.536 Y81.449
N1930 X18.54 Y82.002
N1935 X19.594 Y82.45
N1940 X20.682 Y82.812
N1945 X21.79 Y83.103
N1950 X22.912 Y83.337
N1955 X24.042 Y83.524
N1960 X25.178 Y83.675
N1965 X26.318 Y83.795
N1970 X27.46 Y83.892
N1975 X28.603 Y83.969
N1980 X29.747 Y84.031
N1985 X30.892 Y84.081
N1990 X32.037 Y84.121
N1995 X33.183 Y84.152
N2000 X34.328 Y84.178
N2005 X35.474 Y84.198
N2010 X36.62 Y84.214
N2015 X37.766 Y84.227
N2020 X38.911 Y84.237
N2025 X40.057 Y84.245
N2030 X41.203 Y84.252
N2035 X42.349 Y84.257
N2040 X44.641 Y84.264
N2045 X46.933 Y84.269
N2050 X50.37 Y84.273
N2055 X54.954 Y84.276
N2060 X68.705 Y84.277
N2065 X73.288
N2070 X74.426 Y84.139
N2075 X75.449 Y83.622
N2080 X76.312 Y82.869
N2085 X77.024 Y81.971
N2090 X77.605 Y80.983
N2095 X78.076 Y79.939
N2100 X78.456 Y78.858
N2105 X78.762 Y77.754
N2110 X79.009 Y76.634
N2115 X79.206 Y75.506
N2120 X79.365 Y74.371
N2125 X79.492 Y73.232
N2130 X79.594 Y72.091
N2135 X79.675 Y70.948
N2140 X79.741 Y69.804
N2145 X79.793 Y68.659
N2150 X79.835 Y67.514
N2155 X79.868 Y66.368
N2160 X79.895 Y65.223
N2165 X79.916 Y64.077
N2170 X79.933 Y62.931
N2175 X79.947 Y61.785
N2180 X79.957 Y60.64
N2185 X79.966 Y59.494
N2190 X79.973 Y58.348
N2195 X79.979 Y57.202
N2200 X79.986 Y54.91
N2205 X79.991 Y52.618
N2210 X79.996 Y49.181
N2215 X79.999 Y43.451
N2220 X80. Y26.263
N2225 Y21.679
N2230 X79.842 Y20.544
N2235 X79.315 Y19.526
N2240 X78.556 Y18.668
N2245 X77.655 Y17.96
N2250 X76.665 Y17.383
N2255 X75.619 Y16.915
N2260 X74.538 Y16.537
N2265 X73.433 Y16.232
N2270 X72.314 Y15.987
N2275 X71.185 Y15.79
N2280 X70.05 Y15.632
N2285 X68.911 Y15.506
N2290 X67.769 Y15.404
N2295 X66.626 Y15.323
N2300 X65.482 Y15.258
N2305 X64.338 Y15.206
N2310 X63.192 Y15.164
N2315 X62.047 Y15.131
N2320 X60.901 Y15.105
N2325 X59.756 Y15.084
N2330 X58.61 Y15.067
N2335 X57.464 Y15.053
N2340 X56.318 Y15.042
N2345 X55.172 Y15.034
N2350 X54.027 Y15.027
N2355 X52.881 Y15.021
N2360 X50.589 Y15.014
N2365 X48.297 Y15.009
N2370 X44.859 Y15.004
N2375 X39.13 Y15.001
N2380 X26.525 Y15.
N2385 X25.399 Y15.21
N2390 X24.402 Y15.776
N2395 X23.564 Y16.557
N2400 X22.875 Y17.473
N2405 X22.313 Y18.472
N2410 X21.858 Y19.523
N2415 X21.491 Y20.609
N2420 X21.195 Y21.716
N2425 X20.957 Y22.837
N2430 X20.766 Y23.967
N2435 X20.613 Y25.102
N2440 X20.49 Y26.242
N2445 X20.392 Y27.383
N2450 X20.313 Y28.526
N2455 X20.25 Y29.671
N2460 X20.2 Y30.815
N2465 X20.16 Y31.961
N2470 X20.127 Y33.106
N2475 X20.102 Y34.252
N2480 X20.081 Y35.397
N2485 X20.065 Y36.543
N2490 X20.052 Y37.689
N2495 X20.041 Y38.835
N2500 X20.033 Y39.981
N2505 X20.026 Y41.127
N2510 X20.021 Y42.272
N2515 X20.013 Y44.564
N2520 X20.008 Y46.856
N2525 X20.004 Y50.294
N2530 X20.001 Y56.023
N2535 X20. Y72.066
N2540 X20.002 Y72.639
N2545 X20.202 Y73.767
N2550 X20.754 Y74.771
N2555 X21.526 Y75.619
N2560 X22.433 Y76.318
N2565 X23.426 Y76.891
N2570 X24.473 Y77.355
N2575 X25.556 Y77.731
N2580 X26.661 Y78.034
N2585 X27.781 Y78.278
N2590 X28.909 Y78.475
N2595 X30.044 Y78.634
N2600 X31.183 Y78.761
N2605 X32.324 Y78.863
N2610 X33.467 Y78.945
N2615 X34.611 Y79.011
N2620 X35.756 Y79.064
N2625 X36.901 Y79.106
N2630 X38.047 Y79.14
N2635 X39.192 Y79.168
N2640 X40.338 Y79.19
N2645 X41.484 Y79.207
N2650 X42.629 Y79.221
N2655 X43.775 Y79.232
N2660 X44.921 Y79.241
N2665 X46.067 Y79.249
N2670 X47.213 Y79.254
N2675 X49.505 Y79.263
N2680 X51.797 Y79.268
N2685 X55.234 Y79.273
N2690 X60.964 Y79.276
N2695 X67.839 Y79.277
N2700 X68.412 Y79.268
N2705 X69.537 Y79.051
N2710 X70.536 Y78.489
N2715 X71.376 Y77.71
N2720 X72.07 Y76.798
N2725 X72.637 Y75.802
N2730 X73.097 Y74.753
N2735 X73.469 Y73.669
N2740 X73.769 Y72.563
N2745 X74.011 Y71.443
N2750 X74.206 Y70.314
N2755 X74.363 Y69.179
N2760 X74.489 Y68.04
N2765 X74.59 Y66.898
N2770 X74.671 Y65.755
N2775 X74.737 Y64.611
N2780 X74.789 Y63.466
N2785 X74.831 Y62.321
N2790 X74.865 Y61.176
N2795 X74.892 Y60.03
N2800 X74.913 Y58.885
N2805 X74.931 Y57.739
N2810 X74.944 Y56.593
N2815 X74.956 Y55.447
N2820 X74.964 Y54.301
N2825 X74.972 Y53.155
N2830 X74.977 Y52.01
N2835 X74.986 Y49.718
N2840 X74.991 Y47.426
N2845 X74.995 Y43.988
N2850 X74.998 Y38.259
N2855 X75. Y29.092
N2860 Y26.8
N2865 X74.858 Y25.663
N2870 X74.344 Y24.638
N2875 X73.597 Y23.77
N2880 X72.705 Y23.051
N2885 X71.722 Y22.462
N2890 X70.68 Y21.984
N2895 X69.602 Y21.596
N2900 X68.499 Y21.284
N2905 X67.382 Y21.031
N2910 X66.254 Y20.828
N2915 X65.12 Y20.665
N2920 X63.981 Y20.534
N2925 X62.84 Y20.428
N2930 X61.697 Y20.343
N2935 X60.554 Y20.275
N2940 X59.409 Y20.221
N2945 X58.264 Y20.177
N2950 X57.119 Y20.142
N2955 X55.973 Y20.113
N2960 X54.827 Y20.091
N2965 X53.682 Y20.073
N2970 X52.536 Y20.058
N2975 X51.39 Y20.046
N2980 X50.244 Y20.037
N2985 X49.098 Y20.03
N2990 X47.952 Y20.024
N2995 X45.661 Y20.015
N3000 X43.369 Y20.01
N3005 X39.931 Y20.005
N3010 X34.202 Y20.002
N3015 X31.91 Y20.001
N3020 X30.769 Y20.106
N3025 X29.73 Y20.59
N3030 X28.845 Y21.319
N3035 X28.113 Y22.2
N3040 X27.513 Y23.176
N3045 X27.025 Y24.213
N3050 X26.63 Y25.289
N3055 X26.31 Y26.389
N3060 X26.053 Y27.506
N3065 X25.846 Y28.633
N3070 X25.679 Y29.766
N3075 X25.545 Y30.904
N3080 X25.437 Y32.045
N3085 X25.351 Y33.188
N3090 X25.281 Y34.332
N3095 X25.225 Y35.476
N3100 X25.18 Y36.621
N3105 X25.145 Y37.767
N3110 X25.116 Y38.912
N3115 X25.093 Y40.058
N3120 X25.074 Y41.204
N3125 X25.059 Y42.349
N3130 X25.048 Y43.495
N3135 X25.038 Y44.641
N3140 X25.03 Y45.787
N3145 X25.024 Y46.933
N3150 X25.016 Y49.225
N3155 X25.01 Y51.516
N3160 X25.005 Y54.954
N3165 X25.002 Y60.684
N3170 X25. Y67.559
N3175 X25.192 Y68.689
N3180 X25.733 Y69.699
N3185 X26.497 Y70.553
N3190 X27.399 Y71.26
N3195 X28.387 Y71.84
N3200 X29.432 Y72.311
N3205 X30.512 Y72.692
N3210 X31.616 Y73.001
N3215 X32.734 Y73.25
N3220 X33.863 Y73.451
N3225 X34.997 Y73.613
N3230 X36.135 Y73.743
N3235 X37.276 Y73.848
N3240 X38.419 Y73.932
N3245 X39.563 Y74.
N3250 X40.708 Y74.055
N3255 X41.853 Y74.099
N3260 X42.998 Y74.134
N3265 X44.144 Y74.162
N3270 X45.289 Y74.185
N3275 X46.435 Y74.203
N3280 X47.581 Y74.218
N3285 X48.727 Y74.23
N3290 X49.873 Y74.239
N3295 X51.019 Y74.247
N3300 X52.164 Y74.253
N3305 X54.456 Y74.262
N3310 X56.748 Y74.267
N3315 X60.186 Y74.272
N3320 X63.623 Y74.275
N3325 X64.727 Y73.965
N3330 X65.691 Y73.346
N3335 X66.5 Y72.534
N3340 X67.167 Y71.603
N3345 X67.712 Y70.595
N3350 X68.154 Y69.538
N3355 X68.513 Y68.449
N3360 X68.802 Y67.341
N3365 X69.036 Y66.219
N3370 X69.225 Y65.089
N3375 X69.377 Y63.953
N3380 X69.499 Y62.813
N3385 X69.598 Y61.672
N3390 X69.677 Y60.529
N3395 X69.74 Y59.384
N3400 X69.792 Y58.24
N3405 X69.833 Y57.095
N3410 X69.866 Y55.949
N3415 X69.892 Y54.804
N3420 X69.914 Y53.658
N3425 X69.931 Y52.512
N3430 X69.944 Y51.366
N3435 X69.955 Y50.22
N3440 X69.964 Y49.074
N3445 X69.971 Y47.929
N3450 X69.977 Y46.783
N3455 X69.985 Y44.491
N3460 X69.991 Y42.199
N3465 X69.995 Y38.761
N3470 X69.998 Y33.032
N3475 X69.999 Y31.886
N3480 X69.869 Y30.748
N3485 X69.368 Y29.717
N3490 X68.631 Y28.84
N3495 X67.745 Y28.112
N3500 X66.767 Y27.516
N3505 X65.729 Y27.03
N3510 X64.653 Y26.636
N3515 X63.552 Y26.318
N3520 X62.435 Y26.061
N3525 X61.308 Y25.854
N3530 X60.175 Y25.686
N3535 X59.037 Y25.552
N3540 X57.896 Y25.444
N3545 X56.753 Y25.356
N3550 X55.61 Y25.286
N3555 X54.465 Y25.23
N3560 X53.32 Y25.185
N3565 X52.175 Y25.148
N3570 X51.029 Y25.119
N3575 X49.884 Y25.095
N3580 X48.738 Y25.077
N3585 X47.592 Y25.061
N3590 X46.446 Y25.049
N3595 X45.3 Y25.04
N3600 X44.154 Y25.032
N3605 X43.009 Y25.025
N3610 X40.717 Y25.016
N3615 X38.425 Y25.01
N3620 X37.279 Y25.008
N3625 X36.133 Y25.009
N3630 X35.056 Y25.4
N3635 X34.126 Y26.069
N3640 X33.349 Y26.911
N3645 X32.71 Y27.862
N3650 X32.188 Y28.882
N3655 X31.764 Y29.947
N3660 X31.422 Y31.041
N3665 X31.145 Y32.152
N3670 X30.921 Y33.276
N3675 X30.741 Y34.408
N3680 X30.596 Y35.545
N3685 X30.479 Y36.685
N3690 X30.385 Y37.827
N3695 X30.309 Y38.97
N3700 X30.248 Y40.114
N3705 X30.199 Y41.259
N3710 X30.16 Y42.404
N3715 X30.129 Y43.55
N3720 X30.103 Y44.695
N3725 X30.083 Y45.841
N3730 X30.066 Y46.987
N3735 X30.053 Y48.133
N3740 X30.047 Y48.831
N3745 X30.046 Y48.874
N3750 X30.044 Y48.917
N3755 X30.041 Y48.96
N3760 X30.021 Y49.189
N3765 X30.016 Y49.489
N3770 Y49.788
N3775 X29.978 Y50.934
N3780 X29.984 Y52.08
N3785 X29.989 Y53.225
N3790 X29.994 Y55.517
N3795 X29.998 Y58.955
N3800 X29.999 Y62.393
N3805 X30.142 Y63.53
N3810 X30.648 Y64.558
N3815 X31.389 Y65.432
N3820 X32.275 Y66.158
N3825 X33.254 Y66.754
N3830 X34.292 Y67.239
N3835 X35.368 Y67.633
N3840 X36.469 Y67.952
N3845 X37.586 Y68.209
N3850 X38.712 Y68.417
N3855 X39.846 Y68.585
N3860 X40.984 Y68.72
N3865 X42.125 Y68.829
N3870 X43.267 Y68.917
N3875 X44.411 Y68.987
N3880 X45.555 Y69.044
N3885 X46.7 Y69.09
N3890 X47.846 Y69.127
N3895 X48.991 Y69.156
N3900 X50.137 Y69.18
N3905 X51.283 Y69.199
N3910 X52.428 Y69.214
N3915 X53.574 Y69.227
N3920 X54.72 Y69.237
N3925 X55.866 Y69.245
N3930 X57.012 Y69.251
N3935 X58.158 Y69.256
N3940 X59.293 Y69.103
N3945 X60.317 Y68.588
N3950 X61.187 Y67.843
N3955 X61.908 Y66.952
N3960 X62.499 Y65.97
N3965 X62.98 Y64.93
N3970 X63.371 Y63.853
N3975 X63.687 Y62.752
N3980 X63.943 Y61.634
N3985 X64.149 Y60.507
N3990 X64.315 Y59.373
N3995 X64.449 Y58.235
N4000 X64.556 Y57.095
N4005 X64.643 Y55.952
N4010 X64.713 Y54.808
N4015 X64.769 Y53.664
N4020 X64.814 Y52.519
N4025 X64.842 Y51.677
N4030 X64.847 Y51.609
N4035 X64.979 Y50.088
N4040 X64.984 Y49.788
N4045 Y49.489
N4050 X65.022 Y48.343
N4055 X65.014 Y47.197
N4060 X65.009 Y46.052
N4065 X65.005 Y44.906
N4070 X65.001 Y42.614
N4075 X64.999 Y39.176
N4080 Y36.884
N4085 X64.858 Y35.747
N4090 X64.352 Y34.719
N4095 X63.611 Y33.845
N4100 X62.725 Y33.119
N4105 X61.746 Y32.523
N4110 X60.708 Y32.038
N4115 X59.632 Y31.644
N4120 X58.531 Y31.326
N4125 X57.414 Y31.068
N4130 X56.287 Y30.86
N4135 X55.154 Y30.692
N4140 X54.016 Y30.557
N4145 X52.875 Y30.448
N4150 X51.733 Y30.361
N4155 X50.589 Y30.29
N4160 X49.444 Y30.233
N4165 X48.299 Y30.188
N4170 X47.154 Y30.151
N4175 X46.009 Y30.121
N4180 X44.863 Y30.097
N4185 X43.717 Y30.078
N4190 X42.571 Y30.063
N4195 X41.426 Y30.051
N4200 X40.318 Y30.345
N4205 X39.348 Y30.955
N4210 X38.533 Y31.761
N4215 X37.862 Y32.689
N4220 X37.312 Y33.695
N4225 X36.866 Y34.75
N4230 X36.562 Y35.664
N4235 X36.451 Y35.923
N4240 X36.297 Y36.16
N4245 X36.106 Y36.367
N4250 X35.966 Y36.496
N4255 X35.558 Y36.9
N4260 X34.468 Y37.989
N4265 X34.362 Y38.099
N4270 X34.101 Y38.399
N4275 X33.869 Y38.685
N4280 X33.569 Y39.106
N4285 X32.806 Y40.197
N4290 X32.671 Y40.401
N4295 X32.371 Y40.87
N4300 X32.236 Y41.096
N4305 X31.947 Y41.696
N4310 X31.472 Y42.715
N4315 X31.118 Y43.494
N4320 X30.873 Y44.265
N4325 X30.837 Y44.393
N4330 X30.436 Y45.892
N4335 X30.359 Y46.192
N4340 X30.289 Y46.491
N4345 X30.274 Y46.574
N4350 X30.239 Y46.791
N4355 X30.18 Y47.391
N4360 X30.151 Y47.69
N4365 X30.041 Y48.96
N4370 X30.027 Y49.043
N4375 X30.006 Y49.124
N4380 G02 X29.987 Y49.559 I0.864 J0.257
N4385 G01 X30.005 Y49.673
N4390 X30.016 Y49.788
N4395 X30.021 Y50.088
N4400 X30.151 Y51.587
N4405 X30.18 Y51.886
N4410 X30.239 Y52.486
N4415 X30.274 Y52.704
N4420 X30.289 Y52.786
N4425 X30.359 Y53.085
N4430 X30.436 Y53.385
N4435 X30.837 Y54.884
N4440 X30.873 Y55.012
N4445 X31.118 Y55.783
N4450 X31.472 Y56.563
N4455 X31.947 Y57.581
N4460 X32.235 Y58.181
N4465 X32.371 Y58.407
N4470 X32.671 Y58.876
N4475 X32.805 Y59.08
N4480 X33.569 Y60.171
N4485 X33.869 Y60.592
N4490 X34.101 Y60.878
N4495 X34.361 Y61.178
N4500 X34.468 Y61.288
N4505 X35.557 Y62.377
N4510 X35.966 Y62.782
N4515 X36.179 Y62.977
N4520 X36.266 Y63.051
N4525 X36.565 Y63.281
N4530 X36.865 Y63.497
N4535 X37.834 Y64.176
N4540 X38.363 Y64.543
N4545 X38.662 Y64.74
N4550 X38.719 Y64.775
N4555 X39.261 Y65.053
N4560 X39.307 Y65.075
N4565 X40.759 Y65.752
N4570 X41.059 Y65.886
N4575 X41.658 Y66.124
N4580 X41.958 Y66.218
N4585 X42.557 Y66.382
N4590 X43.456 Y66.623
N4595 X44.055 Y66.779
N4600 X44.354 Y66.844
N4605 X44.954 Y66.931
N4610 X45.253 Y66.961
N4615 X46.451 Y67.066
N4620 X46.751 Y67.091
N4625 X47.35 Y67.128
N4630 X47.65
N4635 X48.249 Y67.091
N4640 X48.549 Y67.066
N4645 X49.747 Y66.961
N4650 X50.046 Y66.931
N4655 X50.646 Y66.844
N4660 X50.945 Y66.779
N4665 X51.544 Y66.623
N4670 X52.443 Y66.382
N4675 X53.042 Y66.218
N4680 X53.342 Y66.124
N4685 X53.941 Y65.886
N4690 X54.241 Y65.752
N4695 X55.693 Y65.075
N4700 X55.739 Y65.053
N4705 X56.281 Y64.775
N4710 X56.338 Y64.74
N4715 X56.637 Y64.543
N4720 X57.237 Y64.126
N4725 X58.135 Y63.497
N4730 X58.441 Y63.276
N4735 X58.734 Y63.051
N4740 X58.821 Y62.977
N4745 X59.034 Y62.782
N4750 X59.443 Y62.377
N4755 X60.532 Y61.288
N4760 X60.639 Y61.178
N4765 X60.899 Y60.878
N4770 X61.131 Y60.592
N4775 X61.431 Y60.171
N4780 X62.195 Y59.08
N4785 X62.329 Y58.876
N4790 X62.629 Y58.407
N4795 X62.765 Y58.181
N4800 X63.053 Y57.581
N4805 X63.528 Y56.563
N4810 X63.882 Y55.783
N4815 X64.127 Y55.012
N4820 X64.163 Y54.884
N4825 X64.564 Y53.385
N4830 X64.641 Y53.085
N4835 X64.711 Y52.786
N4840 X64.726 Y52.704
N4845 X64.761 Y52.486
N4850 X64.82 Y51.886
N4855 X64.847 Y51.609
N4860 G03 X65.935 Y50.706 Z-2.8 I0.996 J0.094
N4865 X65.749 Y52.698 I-0.093 J0.996
N4870 X64.849 Y51.589 I0.093 J-0.996
N4875 G01 X65.076 Y49.599
N4880 G03 X67.063 Y49.826 I0.994 J0.113
N4885 X65.831 Y50.683 I-0.994 J-0.113
N4890 X65.219 Y50.238 Z-2.899 I0.238 J-0.971
N4895 G01 X65.211 Y50.226 Z-2.901
N4900 G03 X64.984 Y49.489 Z-3. I1.354 J-0.82 F400.
N4905 G01 X64.979 Y49.189 F800.
N4910 X64.849 Y47.69
N4915 X64.82 Y47.391
N4920 X64.761 Y46.791
N4925 X64.726 Y46.574
N4930 X64.711 Y46.491
N4935 X64.641 Y46.192
N4940 X64.564 Y45.892
N4945 X64.163 Y44.393
N4950 X64.127 Y44.265
N4955 X63.882 Y43.494
N4960 X63.528 Y42.715
N4965 X63.053 Y41.696
N4970 X62.764 Y41.096
N4975 X62.629 Y40.87
N4980 X62.329 Y40.401
N4985 X62.194 Y40.197
N4990 X61.431 Y39.106
N4995 X61.131 Y38.685
N5000 X60.899 Y38.399
N5005 X60.638 Y38.099
N5010 X60.532 Y37.989
N5015 X59.442 Y36.9
N5020 X59.034 Y36.496
N5025 X58.821 Y36.3
N5030 X58.734 Y36.226
N5035 X58.435 Y35.996
N5040 X58.135 Y35.78
N5045 X57.165 Y35.101
N5050 X56.637 Y34.735
N5055 X56.338 Y34.537
N5060 X56.281 Y34.502
N5065 X55.739 Y34.225
N5070 X55.692 Y34.202
N5075 X54.241 Y33.525
N5080 X53.941 Y33.392
N5085 X53.342 Y33.154
N5090 X53.042 Y33.059
N5095 X52.443 Y32.895
N5100 X51.544 Y32.654
N5105 X50.945 Y32.498
N5110 X50.646 Y32.434
N5115 X50.046 Y32.346
N5120 X49.747 Y32.316
N5125 X48.549 Y32.211
N5130 X48.249 Y32.186
N5135 X47.65 Y32.15
N5140 X47.35
N5145 X46.751 Y32.186
N5150 X46.451 Y32.211
N5155 X45.253 Y32.316
N5160 X44.954 Y32.346
N5165 X44.354 Y32.434
N5170 X44.055 Y32.498
N5175 X43.456 Y32.654
N5180 X42.557 Y32.895
N5185 X41.958 Y33.059
N5190 X41.658 Y33.154
N5195 X41.059 Y33.392
N5200 X40.759 Y33.525
N5205 X39.308 Y34.202
N5210 X39.261 Y34.225
N5215 X38.719 Y34.502
N5220 X38.662 Y34.537
N5225 X38.363 Y34.735
N5230 X37.763 Y35.151
N5235 X36.865 Y35.78
N5240 X36.559 Y36.001
N5245 X36.266 Y36.226
N5250 X36.179 Y36.3
N5255 X36.106 Y36.367
N5260 X36.025 Y36.419 Z-2.994
N5265 X35.946 Y36.469 Z-2.976
N5270 X35.869 Y36.518 Z-2.948
N5275 X35.794 Y36.54 Z-2.913
N5280 X35.724 Y36.56 Z-2.87
N5285 X35.659 Y36.579 Z-2.819
N5290 X35.599 Y36.597 Z-2.761
N5295 X35.544 Y36.601 Z-2.698
N5300 X35.497 Y36.604 Z-2.63
N5305 X35.457 Y36.607 Z-2.558
N5310 X35.423 Y36.605 Z-2.476
N5315 X35.398 Y36.604 Z-2.391
N5320 X35.383 Z-2.303
N5325 X35.378 Z-2.215
N5330 G00 Z5.
N5335 X-0.783 Y-10.533
N5340 Z-3.
N5345 G01 Z-4. F400.
N5350 Z-6.
N5355 G03 X0. Y-5.089 I-24.731 J6.335
N5360 G01 Y45.474 F800.
N5365 Y94.461
N5370 X0.049 Y94.743
N5375 X0.242 Y95.282
N5380 X0.931 Y96.198
N5385 X1.834 Y96.904
N5390 X2.843 Y97.448
N5395 X3.909 Y97.867
N5400 X5.009 Y98.19
N5405 X6.127 Y98.439
N5410 X7.257 Y98.631
N5415 X8.393 Y98.78
N5420 X9.533 Y98.894
N5425 X10.676 Y98.982
N5430 X11.82 Y99.049
N5435 X12.964 Y99.102
N5440 X14.11 Y99.142
N5445 X15.255 Y99.173
N5450 X16.401 Y99.197
N5455 X17.546 Y99.215
N5460 X18.692 Y99.23
N5465 X19.838 Y99.241
N5470 X20.984 Y99.249
N5475 X22.13 Y99.255
N5480 X23.276 Y99.261
N5485 X25.568 Y99.267
N5490 X29.005 Y99.273
N5495 X33.589 Y99.276
N5500 X46.194 Y99.277
N5505 X50.777
N5510 X90.024
N5515 X90.31 Y99.249
N5520 X90.862 Y99.096
N5525 X91.81 Y98.453
N5530 X92.541 Y97.57
N5535 X93.105 Y96.572
N5540 X93.539 Y95.512
N5545 X93.874 Y94.416
N5550 X94.132 Y93.3
N5555 X94.331 Y92.171
N5560 X94.484 Y91.036
N5565 X94.602 Y89.896
N5570 X94.694 Y88.754
N5575 X94.764 Y87.61
N5580 X94.818 Y86.465
N5585 X94.86 Y85.32
N5590 X94.892 Y84.175
N5595 X94.917 Y83.029
N5600 X94.936 Y81.883
N5605 X94.95 Y80.737
N5610 X94.962 Y79.592
N5615 X94.971 Y78.446
N5620 X94.977 Y77.3
N5625 X94.983 Y76.154
N5630 X94.99 Y73.862
N5635 X94.994 Y71.57
N5640 X94.997 Y68.133
N5645 X94.999 Y61.257
N5650 X95. Y39.485
N5655 Y4.822
N5660 X94.951 Y4.539
N5665 X94.758 Y4.
N5670 X94.07 Y3.083
N5675 X93.168 Y2.377
N5680 X92.16 Y1.832
N5685 X91.094 Y1.412
N5690 X89.994 Y1.088
N5695 X88.876 Y0.839
N5700 X87.746 Y0.647
N5705 X86.61 Y0.499
N5710 X85.47 Y0.384
N5715 X84.327 Y0.296
N5720 X83.183 Y0.228
N5725 X82.039 Y0.176
N5730 X80.894 Y0.136
N5735 X79.748 Y0.105
N5740 X78.602 Y0.081
N5745 X77.457 Y0.062
N5750 X76.311 Y0.048
N5755 X75.165 Y0.037
N5760 X74.019 Y0.028
N5765 X72.873 Y0.022
N5770 X71.727 Y0.017
N5775 X69.436 Y0.01
N5780 X65.998 Y0.005
N5785 X61.414 Y0.002
N5790 X48.809 Y0.
N5795 X30.475
N5800 X9.849
N5805 X9.293 Y0.14
N5810 X8.309 Y0.727
N5815 X7.551 Y1.586
N5820 X6.966 Y2.572
N5825 X6.516 Y3.625
N5830 X6.168 Y4.717
N5835 X5.901 Y5.832
N5840 X5.694 Y6.959
N5845 X5.535 Y8.094
N5850 X5.412 Y9.233
N5855 X5.318 Y10.375
N5860 X5.245 Y11.519
N5865 X5.189 Y12.663
N5870 X5.146 Y13.808
N5875 X5.112 Y14.954
N5880 X5.087 Y16.099
N5885 X5.067 Y17.245
N5890 X5.051 Y18.391
N5895 X5.04 Y19.537
N5900 X5.031 Y20.682
N5905 X5.024 Y21.828
N5910 X5.018 Y22.974
N5915 X5.011 Y25.266
N5920 X5.006 Y27.558
N5925 X5.005 Y28.704
N5930 X5.002 Y33.287
N5935 X5. Y44.746
N5940 Y79.123
N5945 Y88.29
N5950 X5.095 Y88.855
N5955 X5.52 Y89.92
N5960 X6.249 Y90.804
N5965 X7.144 Y91.52
N5970 X8.136 Y92.093
N5975 X9.187 Y92.549
N5980 X10.274 Y92.912
N5985 X11.383 Y93.2
N5990 X12.506 Y93.428
N5995 X13.638 Y93.608
N6000 X14.775 Y93.75
N6005 X15.915 Y93.862
N6010 X17.058 Y93.951
N6015 X18.202 Y94.02
N6020 X19.346 Y94.075
N6025 X20.491 Y94.119
N6030 X21.637 Y94.153
N6035 X22.782 Y94.179
N6040 X23.928 Y94.2
N6045 X25.074 Y94.217
N6050 X26.22 Y94.23
N6055 X27.365 Y94.24
N6060 X28.511 Y94.248
N6065 X29.657 Y94.255
N6070 X30.803 Y94.26
N6075 X33.095 Y94.266
N6080 X36.533 Y94.272
N6085 X41.116 Y94.275
N6090 X44.554 Y94.276
N6095 X70.91 Y94.277
N6100 X84.088
N6105 X84.649 Y94.164
N6110 X85.703 Y93.715
N6115 X86.577 Y92.973
N6120 X87.282 Y92.07
N6125 X87.847 Y91.073
N6130 X88.297 Y90.019
N6135 X88.655 Y88.931
N6140 X88.939 Y87.821
N6145 X89.163 Y86.697
N6150 X89.34 Y85.565
N6155 X89.48 Y84.427
N6160 X89.591 Y83.287
N6165 X89.678 Y82.144
N6170 X89.747 Y81.
N6175 X89.801 Y79.856
N6180 X89.844 Y78.711
N6185 X89.877 Y77.565
N6190 X89.904 Y76.42
N6195 X89.924 Y75.274
N6200 X89.941 Y74.128
N6205 X89.953 Y72.982
N6210 X89.963 Y71.836
N6215 X89.971 Y70.691
N6220 X89.978 Y69.545
N6225 X89.982 Y68.399
N6230 X89.989 Y66.107
N6235 X89.995 Y62.669
N6240 X89.998 Y58.086
N6245 X90. Y47.773
N6250 Y35.168
N6255 Y11.104
N6260 X89.935 Y10.535
N6265 X89.551 Y9.455
N6270 X88.843 Y8.554
N6275 X87.961 Y7.822
N6280 X86.976 Y7.236
N6285 X85.93 Y6.769
N6290 X84.846 Y6.398
N6295 X83.739 Y6.104
N6300 X82.617 Y5.871
N6305 X81.486 Y5.686
N6310 X80.349 Y5.541
N6315 X79.209 Y5.426
N6320 X78.067 Y5.335
N6325 X76.923 Y5.264
N6330 X75.778 Y5.207
N6335 X74.633 Y5.163
N6340 X73.488 Y5.128
N6345 X72.342 Y5.101
N6350 X71.197 Y5.079
N6355 X70.051 Y5.062
N6360 X68.905 Y5.049
N6365 X67.759 Y5.038
N6370 X66.613 Y5.03
N6375 X65.467 Y5.023
N6380 X64.322 Y5.018
N6385 X62.03 Y5.011
N6390 X58.592 Y5.005
N6395 X54.008 Y5.002
N6400 X43.695 Y5.
N6405 X16.194
N6410 X15.622 Y5.042
N6415 X14.532 Y5.394
N6420 X13.617 Y6.084
N6425 X12.874 Y6.957
N6430 X12.278 Y7.935
N6435 X11.803 Y8.978
N6440 X11.425 Y10.06
N6445 X11.125 Y11.166
N6450 X10.887 Y12.287
N6455 X10.7 Y13.417
N6460 X10.551 Y14.553
N6465 X10.434 Y15.693
N6470 X10.342 Y16.836
N6475 X10.269 Y17.979
N6480 X10.211 Y19.124
N6485 X10.166 Y20.269
N6490 X10.131 Y21.414
N6495 X10.103 Y22.559
N6500 X10.08 Y23.705
N6505 X10.063 Y24.851
N6510 X10.05 Y25.997
N6515 X10.039 Y27.143
N6520 X10.03 Y28.288
N6525 X10.024 Y29.434
N6530 X10.019 Y30.58
N6535 X10.011 Y32.872
N6540 X10.007 Y35.164
N6545 X10.003 Y38.602
N6550 X10.001 Y45.477
N6555 X10. Y54.644
N6560 Y83.292
N6565 X10.348 Y84.384
N6570 X11.007 Y85.32
N6575 X11.852 Y86.095
N6580 X12.808 Y86.726
N6585 X13.834 Y87.237
N6590 X14.904 Y87.647
N6595 X16.002 Y87.977
N6600 X17.117 Y88.24
N6605 X18.243 Y88.451
N6610 X19.377 Y88.62
N6615 X20.515 Y88.754
N6620 X21.655 Y88.861
N6625 X22.798 Y88.947
N6630 X23.942 Y89.014
N6635 X25.087 Y89.069
N6640 X26.232 Y89.112
N6645 X27.377 Y89.146
N6650 X28.523 Y89.173
N6655 X29.668 Y89.195
N6660 X30.814 Y89.212
N6665 X31.96 Y89.225
N6670 X33.106 Y89.236
N6675 X34.252 Y89.245
N6680 X35.398 Y89.252
N6685 X36.543 Y89.257
N6690 X38.835 Y89.265
N6695 X41.127 Y89.269
N6700 X44.565 Y89.273
N6705 X50.294 Y89.276
N6710 X69.775 Y89.277
N6715 X78.942
N6720 X80.041 Y88.955
N6725 X80.989 Y88.311
N6730 X81.774 Y87.476
N6735 X82.413 Y86.525
N6740 X82.93 Y85.502
N6745 X83.347 Y84.435
N6750 X83.681 Y83.339
N6755 X83.948 Y82.224
N6760 X84.162 Y81.099
N6765 X84.333 Y79.965
N6770 X84.469 Y78.828
N6775 X84.578 Y77.687
N6780 X84.665 Y76.544
N6785 X84.733 Y75.4
N6790 X84.788 Y74.256
N6795 X84.832 Y73.111
N6800 X84.867 Y71.965
N6805 X84.894 Y70.82
N6810 X84.916 Y69.674
N6815 X84.933 Y68.528
N6820 X84.947 Y67.383
N6825 X84.958 Y66.237
N6830 X84.967 Y65.091
N6835 X84.974 Y63.945
N6840 X84.979 Y62.799
N6845 X84.987 Y60.507
N6850 X84.992 Y58.215
N6855 X84.996 Y54.778
N6860 X84.999 Y49.048
N6865 X85. Y39.881
N6870 Y16.39
N6875 X84.905 Y15.825
N6880 X84.511 Y14.749
N6885 X83.821 Y13.834
N6890 X82.959 Y13.08
N6895 X81.991 Y12.467
N6900 X80.957 Y11.972
N6905 X79.882 Y11.574
N6910 X78.781 Y11.256
N6915 X77.664 Y11.001
N6920 X76.537 Y10.797
N6925 X75.402 Y10.634
N6930 X74.264 Y10.505
N6935 X73.123 Y10.401
N6940 X71.98 Y10.319
N6945 X70.836 Y10.253
N6950 X69.691 Y10.201
N6955 X68.546 Y10.16
N6960 X67.4 Y10.127
N6965 X66.255 Y10.1
N6970 X65.109 Y10.08
N6975 X63.963 Y10.063
N6980 X62.817 Y10.05
N6985 X61.672 Y10.04
N6990 X60.526 Y10.031
N6995 X59.38 Y10.025
N7000 X58.234 Y10.02
N7005 X55.942 Y10.012
N7010 X52.504 Y10.006
N7015 X47.921 Y10.002
N7020 X38.754 Y10.
N7025 X21.565
N7030 X20.995 Y10.06
N7035 X19.899 Y10.394
N7040 X18.959 Y11.049
N7045 X18.182 Y11.891
N7050 X17.55 Y12.847
N7055 X17.039 Y13.873
N7060 X16.628 Y14.942
N7065 X16.299 Y16.04
N7070 X16.035 Y17.155
N7075 X15.825 Y18.282
N7080 X15.656 Y19.415
N7085 X15.522 Y20.553
N7090 X15.415 Y21.694
N7095 X15.33 Y22.837
N7100 X15.262 Y23.981
N7105 X15.208 Y25.125
N7110 X15.165 Y26.27
N7115 X15.131 Y27.416
N7120 X15.104 Y28.561
N7125 X15.082 Y29.707
N7130 X15.065 Y30.853
N7135 X15.052 Y31.999
N7140 X15.041 Y33.144
N7145 X15.032 Y34.29
N7150 X15.026 Y35.436
N7155 X15.02 Y36.582
N7160 X15.013 Y38.874
N7165 X15.008 Y41.166
N7170 X15.004 Y44.603
N7175 X15.001 Y50.333
N7180 X15. Y69.813
N7185 Y77.834
N7190 X15.237 Y78.956
N7195 X15.821 Y79.942
N7200 X16.614 Y80.769
N7205 X17.536 Y81.449
N7210 X18.54 Y82.002
N7215 X19.594 Y82.45
N7220 X20.682 Y82.812
N7225 X21.79 Y83.103
N7230 X22.912 Y83.337
N7235 X24.042 Y83.524
N7240 X25.178 Y83.675
N7245 X26.318 Y83.795
N7250 X27.46 Y83.892
N7255 X28.603 Y83.969
N7260 X29.747 Y84.031
N7265 X30.892 Y84.081
N7270 X32.037 Y84.121
N7275 X33.183 Y84.152
N7280 X34.328 Y84.178
N7285 X35.474 Y84.198
N7290 X36.62 Y84.214
N7295 X37.766 Y84.227
N7300 X38.911 Y84.237
N7305 X40.057 Y84.245
N7310 X41.203 Y84.252
N7315 X42.349 Y84.257
N7320 X44.641 Y84.264
N7325 X46.933 Y84.269
N7330 X50.37 Y84.273
N7335 X54.954 Y84.276
N7340 X68.705 Y84.277
N7345 X73.288
N7350 X74.426 Y84.139
N7355 X75.449 Y83.622
N7360 X76.312 Y82.869
N7365 X77.024 Y81.971
N7370 X77.605 Y80.983
N7375 X78.076 Y79.939
N7380 X78.456 Y78.858
N7385 X78.762 Y77.754
N7390 X79.009 Y76.634
N7395 X79.206 Y75.506
N7400 X79.365 Y74.371
N7405 X79.492 Y73.232
N7410 X79.594 Y72.091
N7415 X79.675 Y70.948
N7420 X79.741 Y69.804
N7425 X79.793 Y68.659
N7430 X79.835 Y67.514
N7435 X79.868 Y66.368
N7440 X79.895 Y65.223
N7445 X79.916 Y64.077
N7450 X79.933 Y62.931
N7455 X79.947 Y61.785
N7460 X79.957 Y60.64
N7465 X79.966 Y59.494
N7470 X79.973 Y58.348
N7475 X79.979 Y57.202
N7480 X79.986 Y54.91
N7485 X79.991 Y52.618
N7490 X79.996 Y49.181
N7495 X79.999 Y43.451
N7500 X80. Y26.263
N7505 Y21.679
N7510 X79.842 Y20.544
N7515 X79.315 Y19.526
N7520 X78.556 Y18.668
N7525 X77.655 Y17.96
N7530 X76.665 Y17.383
N7535 X75.619 Y16.915
N7540 X74.538 Y16.537
N7545 X73.433 Y16.232
N7550 X72.314 Y15.987
N7555 X71.185 Y15.79
N7560 X70.05 Y15.632
N7565 X68.911 Y15.506
N7570 X67.769 Y15.404
N7575 X66.626 Y15.323
N7580 X65.482 Y15.258
N7585 X64.338 Y15.206
N7590 X63.192 Y15.164
N7595 X62.047 Y15.131
N7600 X60.901 Y15.105
N7605 X59.756 Y15.084
N7610 X58.61 Y15.067
N7615 X57.464 Y15.053
N7620 X56.318 Y15.042
N7625 X55.172 Y15.034
N7630 X54.027 Y15.027
N7635 X52.881 Y15.021
N7640 X50.589 Y15.014
N7645 X48.297 Y15.009
N7650 X44.859 Y15.004
N7655 X39.13 Y15.001
N7660 X26.525 Y15.
N7665 X25.399 Y15.21
N7670 X24.402 Y15.776
N7675 X23.564 Y16.557
N7680 X22.875 Y17.473
N7685 X22.313 Y18.472
N7690 X21.858 Y19.523
N7695 X21.491 Y20.609
N7700 X21.195 Y21.716
N7705 X20.957 Y22.837
N7710 X20.766 Y23.967
N7715 X20.613 Y25.102
N7720 X20.49 Y26.242
N7725 X20.392 Y27.383
N7730 X20.313 Y28.526
N7735 X20.25 Y29.671
N7740 X20.2 Y30.815
N7745 X20.16 Y31.961
N7750 X20.127 Y33.106
N7755 X20.102 Y34.252
N7760 X20.081 Y35.397
N7765 X20.065 Y36.543
N7770 X20.052 Y37.689
N7775 X20.041 Y38.835
N7780 X20.033 Y39.981
N7785 X20.026 Y41.127
N7790 X20.021 Y42.272
N7795 X20.013 Y44.564
N7800 X20.008 Y46.856
N7805 X20.004 Y50.294
N7810 X20.001 Y56.023
N7815 X20. Y72.066
N7820 X20.002 Y72.639
N7825 X20.202 Y73.767
N7830 X20.754 Y74.771
N7835 X21.526 Y75.619
N7840 X22.433 Y76.318
N7845 X23.426 Y76.891
N7850 X24.473 Y77.355
N7855 X25.556 Y77.731
N7860 X26.661 Y78.034
N7865 X27.781 Y78.278
N7870 X28.909 Y78.475
N7875 X30.044 Y78.634
N7880 X31.183 Y78.761
N7885 X32.324 Y78.863
N7890 X33.467 Y78.945
N7895 X34.611 Y79.011
N7900 X35.756 Y79.064
N7905 X36.901 Y79.106
N7910 X38.047 Y79.14
N7915 X39.192 Y79.168
N7920 X40.338 Y79.19
N7925 X41.484 Y79.207
N7930 X42.629 Y79.221
N7935 X43.775 Y79.232
N7940 X44.921 Y79.241
N7945 X46.067 Y79.249
N7950 X47.213 Y79.254
N7955 X49.505 Y79.263
N7960 X51.797 Y79.268
N7965 X55.234 Y79.273
N7970 X60.964 Y79.276
N7975 X67.839 Y79.277
N7980 X68.412 Y79.268
N7985 X69.537 Y79.051
N7990 X70.536 Y78.489
N7995 X71.376 Y77.71
N8000 X72.07 Y76.798
N8005 X72.637 Y75.802
N8010 X73.097 Y74.753
N8015 X73.469 Y73.669
N8020 X73.769 Y72.563
N8025 X74.011 Y71.443
N8030 X74.206 Y70.314
N8035 X74.363 Y69.179
N8040 X74.489 Y68.04
N8045 X74.59 Y66.898
N8050 X74.671 Y65.755
N8055 X74.737 Y64.611
N8060 X74.789 Y63.466
N8065 X74.831 Y62.321
N8070 X74.865 Y61.176
N8075 X74.892 Y60.03
N8080 X74.913 Y58.885
N8085 X74.931 Y57.739
N8090 X74.944 Y56.593
N8095 X74.956 Y55.447
N8100 X74.964 Y54.301
N8105 X74.972 Y53.155
N8110 X74.977 Y52.01
N8115 X74.986 Y49.718
N8120 X74.991 Y47.426
N8125 X74.995 Y43.988
N8130 X74.998 Y38.259
N8135 X75. Y29.092
N8140 Y26.8
N8145 X74.858 Y25.663
N8150 X74.344 Y24.638
N8155 X73.597 Y23.77
N8160 X72.705 Y23.051
N8165 X71.722 Y22.462
N8170 X70.68 Y21.984
N8175 X69.602 Y21.596
N8180 X68.499 Y21.284
N8185 X67.382 Y21.031
N8190 X66.254 Y20.828
N8195 X65.12 Y20.665
N8200 X63.981 Y20.534
N8205 X62.84 Y20.428
N8210 X61.697 Y20.343
N8215 X60.554 Y20.275
N8220 X59.409 Y20.221
N8225 X58.264 Y20.177
N8230 X57.119 Y20.142
N8235 X55.973 Y20.113
N8240 X54.827 Y20.091
N8245 X53.682 Y20.073
N8250 X52.536 Y20.058
N8255 X51.39 Y20.046
N8260 X50.244 Y20.037
N8265 X49.098 Y20.03
N8270 X47.952 Y20.024
N8275 X45.661 Y20.015
N8280 X43.369 Y20.01
N8285 X39.931 Y20.005
N8290 X34.202 Y20.002
N8295 X31.91 Y20.001
N8300 X30.769 Y20.106
N8305 X29.73 Y20.59
N8310 X28.845 Y21.319
N8315 X28.113 Y22.2
N8320 X27.513 Y23.176
N8325 X27.025 Y24.213
N8330 X26.63 Y25.289
N8335 X26.31 Y26.389
N8340 X26.053 Y27.506
N8345 X25.846 Y28.633
N8350 X25.679 Y29.766
N8355 X25.545 Y30.904
N8360 X25.437 Y32.045
N8365 X25.351 Y33.188
N8370 X25.281 Y34.332
N8375 X25.225 Y35.476
N8380 X25.18 Y36.621
N8385 X25.145 Y37.767
N8390 X25.116 Y38.912
N8395 X25.093 Y40.058
N8400 X25.074 Y41.204
N8405 X25.059 Y42.349
N8410 X25.048 Y43.495
N8415 X25.038 Y44.641
N8420 X25.03 Y45.787
N8425 X25.024 Y46.933
N8430 X25.016 Y49.225
N8435 X25.01 Y51.516
N8440 X25.005 Y54.954
N8445 X25.002 Y60.684
N8450 X25. Y67.559
N8455 X25.192 Y68.689
N8460 X25.733 Y69.699
N8465 X26.497 Y70.553
N8470 X27.399 Y71.26
N8475 X28.387 Y71.84
N8480 X29.432 Y72.311
N8485 X30.512 Y72.692
N8490 X31.616 Y73.001
N8495 X32.734 Y73.25
N8500 X33.863 Y73.451
N8505 X34.997 Y73.613
N8510 X36.135 Y73.743
N8515 X37.276 Y73.848
N8520 X38.419 Y73.932
N8525 X39.563 Y74.
N8530 X40.708 Y74.055
N8535 X41.853 Y74.099
N8540 X42.998 Y74.134
N8545 X44.144 Y74.162
N8550 X45.289 Y74.185
N8555 X46.435 Y74.203
N8560 X47.581 Y74.218
N8565 X48.727 Y74.23
N8570 X49.873 Y74.239
N8575 X51.019 Y74.247
N8580 X52.164 Y74.253
N8585 X54.456 Y74.262
N8590 X56.748 Y74.267
N8595 X60.186 Y74.272
N8600 X63.623 Y74.275
N8605 X64.727 Y73.965
N8610 X65.691 Y73.346
N8615 X66.5 Y72.534
N8620 X67.167 Y71.603
N8625 X67.712 Y70.595
N8630 X68.154 Y69.538
N8635 X68.513 Y68.449
N8640 X68.802 Y67.341
N8645 X69.036 Y66.219
N8650 X69.225 Y65.089
N8655 X69.377 Y63.953
N8660 X69.499 Y62.813
N8665 X69.598 Y61.672
N8670 X69.677 Y60.529
N8675 X69.74 Y59.384
N8680 X69.792 Y58.24
N8685 X69.833 Y57.095
N8690 X69.866 Y55.949
N8695 X69.892 Y54.804
N8700 X69.914 Y53.658
N8705 X69.931 Y52.512
N8710 X69.944 Y51.366
N8715 X69.955 Y50.22
N8720 X69.964 Y49.074
N8725 X69.971 Y47.929
N8730 X69.977 Y46.783
N8735 X69.985 Y44.491
N8740 X69.991 Y42.199
N8745 X69.995 Y38.761
N8750 X69.998 Y33.032
N8755 X69.999 Y31.886
N8760 X69.869 Y30.748
N8765 X69.368 Y29.717
N8770 X68.631 Y28.84
N8775 X67.745 Y28.112
N8780 X66.767 Y27.516
N8785 X65.729 Y27.03
N8790 X64.653 Y26.636
N8795 X63.552 Y26.318
N8800 X62.435 Y26.061
N8805 X61.308 Y25.854
N8810 X60.175 Y25.686
N8815 X59.037 Y25.552
N8820 X57.896 Y25.444
N8825 X56.753 Y25.356
N8830 X55.61 Y25.286
N8835 X54.465 Y25.23
N8840 X53.32 Y25.185
N8845 X52.175 Y25.148
N8850 X51.029 Y25.119
N8855 X49.884 Y25.095
N8860 X48.738 Y25.077
N8865 X47.592 Y25.061
N8870 X46.446 Y25.049
N8875 X45.3 Y25.04
N8880 X44.154 Y25.032
N8885 X43.009 Y25.025
N8890 X40.717 Y25.016
N8895 X38.425 Y25.01
N8900 X37.279 Y25.008
N8905 X36.133 Y25.009
N8910 X35.056 Y25.4
N8915 X34.126 Y26.069
N8920 X33.349 Y26.911
N8925 X32.71 Y27.862
N8930 X32.188 Y28.882
N8935 X31.764 Y29.947
N8940 X31.422 Y31.041
N8945 X31.145 Y32.152
N8950 X30.921 Y33.276
N8955 X30.741 Y34.408
N8960 X30.596 Y35.545
N8965 X30.479 Y36.685
N8970 X30.385 Y37.827
N8975 X30.309 Y38.97
N8980 X30.248 Y40.114
N8985 X30.199 Y41.259
N8990 X30.16 Y42.404
N8995 X30.129 Y43.55
N9000 X30.103 Y44.695
N9005 X30.083 Y45.841
N9010 X30.066 Y46.987
N9015 X30.053 Y48.133
N9020 X30.047 Y48.831
N9025 X30.046 Y48.874
N9030 X30.044 Y48.917
N9035 X30.041 Y48.96
N9040 X30.021 Y49.189
N9045 X30.016 Y49.489
N9050 Y49.788
N9055 X29.978 Y50.934
N9060 X29.984 Y52.08
N9065 X29.989 Y53.225
N9070 X29.994 Y55.517
N9075 X29.998 Y58.955
N9080 X29.999 Y62.393
N9085 X30.142 Y63.53
N9090 X30.648 Y64.558
N9095 X31.389 Y65.432
N9100 X32.275 Y66.158
N9105 X33.254 Y66.754
N9110 X34.292 Y67.239
N9115 X35.368 Y67.633
N9120 X36.469 Y67.952
N9125 X37.586 Y68.209
N9130 X38.712 Y68.417
N9135 X39.846 Y68.585
N9140 X40.984 Y68.72
N9145 X42.125 Y68.829
N9150 X43.267 Y68.917
N9155 X44.411 Y68.987
N9160 X45.555 Y69.044
N9165 X46.7 Y69.09
N9170 X47.846 Y69.127
N9175 X48.991 Y69.156
N9180 X50.137 Y69.18
N9185 X51.283 Y69.199
N9190 X52.428 Y69.214
N9195 X53.574 Y69.227
N9200 X54.72 Y69.237
N9205 X55.866 Y69.245
N9210 X57.012 Y69.251
N9215 X58.158 Y69.256
N9220 X59.293 Y69.103
N9225 X60.317 Y68.588
N9230 X61.187 Y67.843
N9235 X61.908 Y66.952
N9240 X62.499 Y65.97
N9245 X62.98 Y64.93
N9250 X63.371 Y63.853
N9255 X63.687 Y62.752
N9260 X63.943 Y61.634
N9265 X64.149 Y60.507
N9270 X64.315 Y59.373
N9275 X64.449 Y58.235
N9280 X64.556 Y57.095
N9285 X64.643 Y55.952
N9290 X64.713 Y54.808
N9295 X64.769 Y53.664
N9300 X64.814 Y52.519
N9305 X64.842 Y51.677
N9310 X64.847 Y51.609
N9315 X64.979 Y50.088
N9320 X64.984 Y49.788
N9325 Y49.489
N9330 X65.022 Y48.343
N9335 X65.014 Y47.197
N9340 X65.009 Y46.052
N9345 X65.005 Y44.906
N9350 X65.001 Y42.614
N9355 X64.999 Y39.176
N9360 Y36.884
N9365 X64.858 Y35.747
N9370 X64.352 Y34.719
N9375 X63.611 Y33.845
N9380 X62.725 Y33.119
N9385 X61.746 Y32.523
N9390 X60.708 Y32.038
N9395 X59.632 Y31.644
N9400 X58.531 Y31.326
N9405 X57.414 Y31.068
N9410 X56.287 Y30.86
N9415 X55.154 Y30.692
N9420 X54.016 Y30.557
N9425 X52.875 Y30.448
N9430 X51.733 Y30.361
N9435 X50.589 Y30.29
N9440 X49.444 Y30.233
N9445 X48.299 Y30.188
N9450 X47.154 Y30.151
N9455 X46.009 Y30.121
N9460 X44.863 Y30.097
N9465 X43.717 Y30.078
N9470 X42.571 Y30.063
N9475 X41.426 Y30.051
N9480 X40.318 Y30.345
N9485 X39.348 Y30.955
N9490 X38.533 Y31.761
N9495 X37.862 Y32.689
N9500 X37.312 Y33.695
N9505 X36.866 Y34.75
N9510 X36.562 Y35.664
N9515 X36.451 Y35.923
N9520 X36.297 Y36.16
N9525 X36.106 Y36.367
N9530 X35.966 Y36.496
N9535 X35.558 Y36.9
N9540 X34.468 Y37.989
N9545 X34.362 Y38.099
N9550 X34.101 Y38.399
N9555 X33.869 Y38.685
N9560 X33.569 Y39.106
N9565 X32.806 Y40.197
N9570 X32.671 Y40.401
N9575 X32.371 Y40.87
N9580 X32.236 Y41.096
N9585 X31.947 Y41.696
N9590 X31.472 Y42.715
N9595 X31.118 Y43.494
N9600 X30.873 Y44.265
N9605 X30.837 Y44.393
N9610 X30.436 Y45.892
N9615 X30.359 Y46.192
N9620 X30.289 Y46.491
N9625 X30.274 Y46.574
N9630 X30.239 Y46.791
N9635 X30.18 Y47.391
N9640 X30.151 Y47.69
N9645 X30.041 Y48.96
N9650 X30.027 Y49.043
N9655 X30.006 Y49.124
N9660 G02 X29.987 Y49.559 I0.864 J0.257
N9665 G01 X30.005 Y49.673
N9670 X30.016 Y49.788
N9675 X30.021 Y50.088
N9680 X30.151 Y51.587
N9685 X30.18 Y51.886
N9690 X30.239 Y52.486
N9695 X30.274 Y52.704
N9700 X30.289 Y52.786
N9705 X30.359 Y53.085
N9710 X30.436 Y53.385
N9715 X30.837 Y54.884
N9720 X30.873 Y55.012
N9725 X31.118 Y55.783
N9730 X31.472 Y56.563
N9735 X31.947 Y57.581
N9740 X32.235 Y58.181
N9745 X32.371 Y58.407
N9750 X32.671 Y58.876
N9755 X32.805 Y59.08
N9760 X33.569 Y60.171
N9765 X33.869 Y60.592
N9770 X34.101 Y60.878
N9775 X34.361 Y61.178
N9780 X34.468 Y61.288
N9785 X35.557 Y62.377
N9790 X35.966 Y62.782
N9795 X36.179 Y62.977
N9800 X36.266 Y63.051
N9805 X36.565 Y63.281
N9810 X36.865 Y63.497
N9815 X37.834 Y64.176
N9820 X38.363 Y64.543
N9825 X38.662 Y64.74
N9830 X38.719 Y64.775
N9835 X39.261 Y65.053
N9840 X39.307 Y65.075
N9845 X40.759 Y65.752
N9850 X41.059 Y65.886
N9855 X41.658 Y66.124
N9860 X41.958 Y66.218
N9865 X42.557 Y66.382
N9870 X43.456 Y66.623
N9875 X44.055 Y66.779
N9880 X44.354 Y66.844
N9885 X44.954 Y66.931
N9890 X45.253 Y66.961
N9895 X46.451 Y67.066
N9900 X46.751 Y67.091
N9905 X47.35 Y67.128
N9910 X47.65
N9915 X48.249 Y67.091
N9920 X48.549 Y67.066
N9925 X49.747 Y66.961
N9930 X50.046 Y66.931
N9935 X50.646 Y66.844
N9940 X50.945 Y66.779
N9945 X51.544 Y66.623
N9950 X52.443 Y66.382
N9955 X53.042 Y66.218
N9960 X53.342 Y66.124
N9965 X53.941 Y65.886
N9970 X54.241 Y65.752
N9975 X55.693 Y65.075
N9980 X55.739 Y65.053
N9985 X56.281 Y64.775
N9990 X56.338 Y64.74
N9995 X56.637 Y64.543
N10000 X57.237 Y64.126
N10005 X58.135 Y63.497
N10010 X58.441 Y63.276
N10015 X58.734 Y63.051
N10020 X58.821 Y62.977
N10025 X59.034 Y62.782
N10030 X59.443 Y62.377
N10035 X60.532 Y61.288
N10040 X60.639 Y61.178
N10045 X60.899 Y60.878
N10050 X61.131 Y60.592
N10055 X61.431 Y60.171
N10060 X62.195 Y59.08
N10065 X62.329 Y58.876
N10070 X62.629 Y58.407
N10075 X62.765 Y58.181
N10080 X63.053 Y57.581
N10085 X63.528 Y56.563
N10090 X63.882 Y55.783
N10095 X64.127 Y55.012
N10100 X64.163 Y54.884
N10105 X64.564 Y53.385
N10110 X64.641 Y53.085
N10115 X64.711 Y52.786
N10120 X64.726 Y52.704
N10125 X64.761 Y52.486
N10130 X64.82 Y51.886
N10135 X64.847 Y51.609
N10140 G03 X65.935 Y50.706 Z-5.8 I0.996 J0.094
N10145 X65.749 Y52.698 I-0.093 J0.996
N10150 X64.849 Y51.589 I0.093 J-0.996
N10155 G01 X65.076 Y49.599
N10160 G03 X67.063 Y49.826 I0.994 J0.113
N10165 X65.831 Y50.683 I-0.994 J-0.113
N10170 X65.219 Y50.238 Z-5.899 I0.238 J-0.971
N10175 G01 X65.211 Y50.226 Z-5.901
N10180 G03 X64.984 Y49.489 Z-6. I1.354 J-0.82 F400.
N10185 G01 X64.979 Y49.189 F800.
N10190 X64.849 Y47.69
N10195 X64.82 Y47.391
N10200 X64.761 Y46.791
N10205 X64.726 Y46.574
N10210 X64.711 Y46.491
N10215 X64.641 Y46.192
N10220 X64.564 Y45.892
N10225 X64.163 Y44.393
N10230 X64.127 Y44.265
N10235 X63.882 Y43.494
N10240 X63.528 Y42.715
N10245 X63.053 Y41.696
N10250 X62.764 Y41.096
N10255 X62.629 Y40.87
N10260 X62.329 Y40.401
N10265 X62.194 Y40.197
N10270 X61.431 Y39.106
N10275 X61.131 Y38.685
N10280 X60.899 Y38.399
N10285 X60.638 Y38.099
N10290 X60.532 Y37.989
N10295 X59.442 Y36.9
N10300 X59.034 Y36.496
N10305 X58.821 Y36.3
N10310 X58.734 Y36.226
N10315 X58.435 Y35.996
N10320 X58.135 Y35.78
N10325 X57.165 Y35.101
N10330 X56.637 Y34.735
N10335 X56.338 Y34.537
N10340 X56.281 Y34.502
N10345 X55.739 Y34.225
N10350 X55.692 Y34.202
N10355 X54.241 Y33.525
N10360 X53.941 Y33.392
N10365 X53.342 Y33.154
N10370 X53.042 Y33.059
N10375 X52.443 Y32.895
N10380 X51.544 Y32.654
N10385 X50.945 Y32.498
N10390 X50.646 Y32.434
N10395 X50.046 Y32.346
N10400 X49.747 Y32.316
N10405 X48.549 Y32.211
N10410 X48.249 Y32.186
N10415 X47.65 Y32.15
N10420 X47.35
N10425 X46.751 Y32.186
N10430 X46.451 Y32.211
N10435 X45.253 Y32.316
N10440 X44.954 Y32.346
N10445 X44.354 Y32.434
N10450 X44.055 Y32.498
N10455 X43.456 Y32.654
N10460 X42.557 Y32.895
N10465 X41.958 Y33.059
N10470 X41.658 Y33.154
N10475 X41.059 Y33.392
N10480 X40.759 Y33.525
N10485 X39.308 Y34.202
N10490 X39.261 Y34.225
N10495 X38.719 Y34.502
N10500 X38.662 Y34.537
N10505 X38.363 Y34.735
N10510 X37.763 Y35.151
N10515 X36.865 Y35.78
N10520 X36.559 Y36.001
N10525 X36.266 Y36.226
N10530 X36.179 Y36.3
N10535 X36.106 Y36.367
N10540 X36.025 Y36.419 Z-5.994
N10545 X35.946 Y36.469 Z-5.976
N10550 X35.869 Y36.518 Z-5.948
N10555 X35.794 Y36.54 Z-5.913
N10560 X35.724 Y36.56 Z-5.87
N10565 X35.659 Y36.579 Z-5.819
N10570 X35.599 Y36.597 Z-5.761
N10575 X35.544 Y36.601 Z-5.698
N10580 X35.497 Y36.604 Z-5.63
N10585 X35.457 Y36.607 Z-5.558
N10590 X35.423 Y36.605 Z-5.476
N10595 X35.398 Y36.604 Z-5.391
N10600 X35.383 Z-5.303
N10605 X35.378 Z-5.215
N10610 G00 Z5.
N10615 X-0.783 Y-10.533
N10620 Z-5.
N10625 G01 Z-6. F400.
N10630 Z-8.
N10635 G03 X0. Y-5.089 I-24.731 J6.335
N10640 G01 Y45.474 F800.
N10645 Y94.461
N10650 X0.049 Y94.743
N10655 X0.242 Y95.282
N10660 X0.931 Y96.198
N10665 X1.834 Y96.904
N10670 X2.843 Y97.448
N10675 X3.909 Y97.867
N10680 X5.009 Y98.19
N10685 X6.127 Y98.439
N10690 X7.257 Y98.631
N10695 X8.393 Y98.78
N10700 X9.533 Y98.894
N10705 X10.676 Y98.982
N10710 X11.82 Y99.049
N10715 X12.964 Y99.102
N10720 X14.11 Y99.142
N10725 X15.255 Y99.173
N10730 X16.401 Y99.197
N10735 X17.546 Y99.215
N10740 X18.692 Y99.23
N10745 X19.838 Y99.241
N10750 X20.984 Y99.249
N10755 X22.13 Y99.255
N10760 X23.276 Y99.261
N10765 X25.568 Y99.267
N10770 X29.005 Y99.273
N10775 X33.589 Y99.276
N10780 X46.194 Y99.277
N10785 X50.777
N10790 X90.024
N10795 X90.31 Y99.249
N10800 X90.862 Y99.096
N10805 X91.81 Y98.453
N10810 X92.541 Y97.57
N10815 X93.105 Y96.572
N10820 X93.539 Y95.512
N10825 X93.874 Y94.416
N10830 X94.132 Y93.3
N10835 X94.331 Y92.171
N10840 X94.484 Y91.036
N10845 X94.602 Y89.896
N10850 X94.694 Y88.754
N10855 X94.764 Y87.61
N10860 X94.818 Y86.465
N10865 X94.86 Y85.32
N10870 X94.892 Y84.175
N10875 X94.917 Y83.029
N10880 X94.936 Y81.883
N10885 X94.95 Y80.737
N10890 X94.962 Y79.592
N10895 X94.971 Y78.446
N10900 X94.977 Y77.3
N10905 X94.983 Y76.154
N10910 X94.99 Y73.862
N10915 X94.994 Y71.57
N10920 X94.997 Y68.133
N10925 X94.999 Y61.257
N10930 X95. Y39.485
N10935 Y4.822
N10940 X94.951 Y4.539
N10945 X94.758 Y4.
N10950 X94.07 Y3.083
N10955 X93.168 Y2.377
N10960 X92.16 Y1.832
N10965 X91.094 Y1.412
N10970 X89.994 Y1.088
N10975 X88.876 Y0.839
N10980 X87.746 Y0.647
N10985 X86.61 Y0.499
N10990 X85.47 Y0.384
N10995 X84.327 Y0.296
N11000 X83.183 Y0.228
N11005 X82.039 Y0.176
N11010 X80.894 Y0.136
N11015 X79.748 Y0.105
N11020 X78.602 Y0.081
N11025 X77.457 Y0.062
N11030 X76.311 Y0.048
N11035 X75.165 Y0.037
N11040 X74.019 Y0.028
N11045 X72.873 Y0.022
N11050 X71.727 Y0.017
N11055 X69.436 Y0.01
N11060 X65.998 Y0.005
N11065 X61.414 Y0.002
N11070 X48.809 Y0.
N11075 X30.475
N11080 X9.849
N11085 X9.293 Y0.14
N11090 X8.309 Y0.727
N11095 X7.551 Y1.586
N11100 X6.966 Y2.572
N11105 X6.516 Y3.625
N11110 X6.168 Y4.717
N11115 X5.901 Y5.832
N11120 X5.694 Y6.959
N11125 X5.535 Y8.094
N11130 X5.412 Y9.233
N11135 X5.318 Y10.375
N11140 X5.245 Y11.519
N11145 X5.189 Y12.663
N11150 X5.146 Y13.808
N11155 X5.112 Y14.954
N11160 X5.087 Y16.099
N11165 X5.067 Y17.245
N11170 X5.051 Y18.391
N11175 X5.04 Y19.537
N11180 X5.031 Y20.682
N11185 X5.024 Y21.828
N11190 X5.018 Y22.974
N11195 X5.011 Y25.266
N11200 X5.006 Y27.558
N11205 X5.005 Y28.704
N11210 X5.002 Y33.287
N11215 X5. Y44.746
N11220 Y79.123
N11225 Y88.29
N11230 X5.095 Y88.855
N11235 X5.52 Y89.92
N11240 X6.249 Y90.804
N11245 X7.144 Y91.52
N11250 X8.136 Y92.093
N11255 X9.187 Y92.549
N11260 X10.274 Y92.912
N11265 X11.383 Y93.2
N11270 X12.506 Y93.428
N11275 X13.638 Y93.608
N11280 X14.775 Y93.75
N11285 X15.915 Y93.862
N11290 X17.058 Y93.951
N11295 X18.202 Y94.02
N11300 X19.346 Y94.075
N11305 X20.491 Y94.119
N11310 X21.637 Y94.153
N11315 X22.782 Y94.179
N11320 X23.928 Y94.2
N11325 X25.074 Y94.217
N11330 X26.22 Y94.23
N11335 X27.365 Y94.24
N11340 X28.511 Y94.248
N11345 X29.657 Y94.255
N11350 X30.803 Y94.26
N11355 X33.095 Y94.266
N11360 X36.533 Y94.272
N11365 X41.116 Y94.275
N11370 X44.554 Y94.276
N11375 X70.91 Y94.277
N11380 X84.088
N11385 X84.649 Y94.164
N11390 X85.703 Y93.715
N11395 X86.577 Y92.973
N11400 X87.282 Y92.07
N11405 X87.847 Y91.073
N11410 X88.297 Y90.019
N11415 X88.655 Y88.931
N11420 X88.939 Y87.821
N11425 X89.163 Y86.697
N11430 X89.34 Y85.565
N11435 X89.48 Y84.427
N11440 X89.591 Y83.287
N11445 X89.678 Y82.144
N11450 X89.747 Y81.
N11455 X89.801 Y79.856
N11460 X89.844 Y78.711
N11465 X89.877 Y77.565
N11470 X89.904 Y76.42
N11475 X89.924 Y75.274
N11480 X89.941 Y74.128
N11485 X89.953 Y72.982
N11490 X89.963 Y71.836
N11495 X89.971 Y70.691
N11500 X89.978 Y69.545
N11505 X89.982 Y68.399
N11510 X89.989 Y66.107
N11515 X89.995 Y62.669
N11520 X89.998 Y58.086
N11525 X90. Y47.773
N11530 Y35.168
N11535 Y11.104
N11540 X89.935 Y10.535
N11545 X89.551 Y9.455
N11550 X88.843 Y8.554
N11555 X87.961 Y7.822
N11560 X86.976 Y7.236
N11565 X85.93 Y6.769
N11570 X84.846 Y6.398
N11575 X83.739 Y6.104
N11580 X82.617 Y5.871
N11585 X81.486 Y5.686
N11590 X80.349 Y5.541
N11595 X79.209 Y5.426
N11600 X78.067 Y5.335
N11605 X76.923 Y5.264
N11610 X75.778 Y5.207
N11615 X74.633 Y5.163
N11620 X73.488 Y5.128
N11625 X72.342 Y5.101
N11630 X71.197 Y5.079
N11635 X70.051 Y5.062
N11640 X68.905 Y5.049
N11645 X67.759 Y5.038
N11650 X66.613 Y5.03
N11655 X65.467 Y5.023
N11660 X64.322 Y5.018
N11665 X62.03 Y5.011
N11670 X58.592 Y5.005
N11675 X54.008 Y5.002
N11680 X43.695 Y5.
N11685 X16.194
N11690 X15.622 Y5.042
N11695 X14.532 Y5.394
N11700 X13.617 Y6.084
N11705 X12.874 Y6.957
N11710 X12.278 Y7.935
N11715 X11.803 Y8.978
N11720 X11.425 Y10.06
N11725 X11.125 Y11.166
N11730 X10.887 Y12.287
N11735 X10.7 Y13.417
N11740 X10.551 Y14.553
N11745 X10.434 Y15.693
N11750 X10.342 Y16.836
N11755 X10.269 Y17.979
N11760 X10.211 Y19.124
N11765 X10.166 Y20.269
N11770 X10.131 Y21.414
N11775 X10.103 Y22.559
N11780 X10.08 Y23.705
N11785 X10.063 Y24.851
N11790 X10.05 Y25.997
N11795 X10.039 Y27.143
N11800 X10.03 Y28.288
N11805 X10.024 Y29.434
N11810 X10.019 Y30.58
N11815 X10.011 Y32.872
N11820 X10.007 Y35.164
N11825 X10.003 Y38.602
N11830 X10.001 Y45.477
N11835 X10. Y54.644
N11840 Y83.292
N11845 X10.348 Y84.384
N11850 X11.007 Y85.32
N11855 X11.852 Y86.095
N11860 X12.808 Y86.726
N11865 X13.834 Y87.237
N11870 X14.904 Y87.647
N11875 X16.002 Y87.977
N11880 X17.117 Y88.24
N11885 X18.243 Y88.451
N11890 X19.377 Y88.62
N11895 X20.515 Y88.754
N11900 X21.655 Y88.861
N11905 X22.798 Y88.947
N11910 X23.942 Y89.014
N11915 X25.087 Y89.069
N11920 X26.232 Y89.112
N11925 X27.377 Y89.146
N11930 X28.523 Y89.173
N11935 X29.668 Y89.195
N11940 X30.814 Y89.212
N11945 X31.96 Y89.225
N11950 X33.106 Y89.236
N11955 X34.252 Y89.245
N11960 X35.398 Y89.252
N11965 X36.543 Y89.257
N11970 X38.835 Y89.265
N11975 X41.127 Y89.269
N11980 X44.565 Y89.273
N11985 X50.294 Y89.276
N11990 X69.775 Y89.277
N11995 X78.942
N12000 X80.041 Y88.955
N12005 X80.989 Y88.311
N12010 X81.774 Y87.476
N12015 X82.413 Y86.525
N12020 X82.93 Y85.502
N12025 X83.347 Y84.435
N12030 X83.681 Y83.339
N12035 X83.948 Y82.224
N12040 X84.162 Y81.099
N12045 X84.333 Y79.965
N12050 X84.469 Y78.828
N12055 X84.578 Y77.687
N12060 X84.665 Y76.544
N12065 X84.733 Y75.4
N12070 X84.788 Y74.256
N12075 X84.832 Y73.111
N12080 X84.867 Y71.965
N12085 X84.894 Y70.82
N12090 X84.916 Y69.674
N12095 X84.933 Y68.528
N12100 X84.947 Y67.383
N12105 X84.958 Y66.237
N12110 X84.967 Y65.091
N12115 X84.974 Y63.945
N12120 X84.979 Y62.799
N12125 X84.987 Y60.507
N12130 X84.992 Y58.215
N12135 X84.996 Y54.778
N12140 X84.999 Y49.048
N12145 X85. Y39.881
N12150 Y16.39
N12155 X84.905 Y15.825
N12160 X84.511 Y14.749
N12165 X83.821 Y13.834
N12170 X82.959 Y13.08
N12175 X81.991 Y12.467
N12180 X80.957 Y11.972
N12185 X79.882 Y11.574
N12190 X78.781 Y11.256
N12195 X77.664 Y11.001
N12200 X76.537 Y10.797
N12205 X75.402 Y10.634
N12210 X74.264 Y10.505
N12215 X73.123 Y10.401
N12220 X71.98 Y10.319
N12225 X70.836 Y10.253
N12230 X69.691 Y10.201
N12235 X68.546 Y10.16
N12240 X67.4 Y10.127
N12245 X66.255 Y10.1
N12250 X65.109 Y10.08
N12255 X63.963 Y10.063
N12260 X62.817 Y10.05
N12265 X61.672 Y10.04
N12270 X60.526 Y10.031
N12275 X59.38 Y10.025
N12280 X58.234 Y10.02
N12285 X55.942 Y10.012
N12290 X52.504 Y10.006
N12295 X47.921 Y10.002
N12300 X38.754 Y10.
N12305 X21.565
N12310 X20.995 Y10.06
N12315 X19.899 Y10.394
N12320 X18.959 Y11.049
N12325 X18.182 Y11.891
N12330 X17.55 Y12.847
N12335 X17.039 Y13.873
N12340 X16.628 Y14.942
N12345 X16.299 Y16.04
N12350 X16.035 Y17.155
N12355 X15.825 Y18.282
N12360 X15.656 Y19.415
N12365 X15.522 Y20.553
N12370 X15.415 Y21.694
N12375 X15.33 Y22.837
N12380 X15.262 Y23.981
N12385 X15.208 Y25.125
N12390 X15.165 Y26.27
N12395 X15.131 Y27.416
N12400 X15.104 Y28.561
N12405 X15.082 Y29.707
N12410 X15.065 Y30.853
N12415 X15.052 Y31.999
N12420 X15.041 Y33.144
N12425 X15.032 Y34.29
N12430 X15.026 Y35.436
N12435 X15.02 Y36.582
N12440 X15.013 Y38.874
N12445 X15.008 Y41.166
N12450 X15.004 Y44.603
N12455 X15.001 Y50.333
N12460 X15. Y69.813
N12465 Y77.834
N12470 X15.237 Y78.956
N12475 X15.821 Y79.942
N12480 X16.614 Y80.769
N12485 X17.536 Y81.449
N12490 X18.54 Y82.002
N12495 X19.594 Y82.45
N12500 X20.682 Y82.812
N12505 X21.79 Y83.103
N12510 X22.912 Y83.337
N12515 X24.042 Y83.524
N12520 X25.178 Y83.675
N12525 X26.318 Y83.795
N12530 X27.46 Y83.892
N12535 X28.603 Y83.969
N12540 X29.747 Y84.031
N12545 X30.892 Y84.081
N12550 X32.037 Y84.121
N12555 X33.183 Y84.152
N12560 X34.328 Y84.178
N12565 X35.474 Y84.198
N12570 X36.62 Y84.214
N12575 X37.766 Y84.227
N12580 X38.911 Y84.237
N12585 X40.057 Y84.245
N12590 X41.203 Y84.252
N12595 X42.349 Y84.257
N12600 X44.641 Y84.264
N12605 X46.933 Y84.269
N12610 X50.37 Y84.273
N12615 X54.954 Y84.276
N12620 X68.705 Y84.277
N12625 X73.288
N12630 X74.426 Y84.139
N12635 X75.449 Y83.622
N12640 X76.312 Y82.869
N12645 X77.024 Y81.971
N12650 X77.605 Y80.983
N12655 X78.076 Y79.939
N12660 X78.456 Y78.858
N12665 X78.762 Y77.754
N12670 X79.009 Y76.634
N12675 X79.206 Y75.506
N12680 X79.365 Y74.371
N12685 X79.492 Y73.232
N12690 X79.594 Y72.091
N12695 X79.675 Y70.948
N12700 X79.741 Y69.804
N12705 X79.793 Y68.659
N12710 X79.835 Y67.514
N12715 X79.868 Y66.368
N12720 X79.895 Y65.223
N12725 X79.916 Y64.077
N12730 X79.933 Y62.931
N12735 X79.947 Y61.785
N12740 X79.957 Y60.64
N12745 X79.966 Y59.494
N12750 X79.973 Y58.348
N12755 X79.979 Y57.202
N12760 X79.986 Y54.91
N12765 X79.991 Y52.618
N12770 X79.996 Y49.181
N12775 X79.999 Y43.451
N12780 X80. Y26.263
N12785 Y21.679
N12790 X79.842 Y20.544
N12795 X79.315 Y19.526
N12800 X78.556 Y18.668
N12805 X77.655 Y17.96
N12810 X76.665 Y17.383
N12815 X75.619 Y16.915
N12820 X74.538 Y16.537
N12825 X73.433 Y16.232
N12830 X72.314 Y15.987
N12835 X71.185 Y15.79
N12840 X70.05 Y15.632
N12845 X68.911 Y15.506
N12850 X67.769 Y15.404
N12855 X66.626 Y15.323
N12860 X65.482 Y15.258
N12865 X64.338 Y15.206
N12870 X63.192 Y15.164
N12875 X62.047 Y15.131
N12880 X60.901 Y15.105
N12885 X59.756 Y15.084
N12890 X58.61 Y15.067
N12895 X57.464 Y15.053
N12900 X56.318 Y15.042
N12905 X55.172 Y15.034
N12910 X54.027 Y15.027
N12915 X52.881 Y15.021
N12920 X50.589 Y15.014
N12925 X48.297 Y15.009
N12930 X44.859 Y15.004
N12935 X39.13 Y15.001
N12940 X26.525 Y15.
N12945 X25.399 Y15.21
N12950 X24.402 Y15.776
N12955 X23.564 Y16.557
N12960 X22.875 Y17.473
N12965 X22.313 Y18.472
N12970 X21.858 Y19.523
N12975 X21.491 Y20.609
N12980 X21.195 Y21.716
N12985 X20.957 Y22.837
N12990 X20.766 Y23.967
N12995 X20.613 Y25.102
N13000 X20.49 Y26.242
N13005 X20.392 Y27.383
N13010 X20.313 Y28.526
N13015 X20.25 Y29.671
N13020 X20.2 Y30.815
N13025 X20.16 Y31.961
N13030 X20.127 Y33.106
N13035 X20.102 Y34.252
N13040 X20.081 Y35.397
N13045 X20.065 Y36.543
N13050 X20.052 Y37.689
N13055 X20.041 Y38.835
N13060 X20.033 Y39.981
N13065 X20.026 Y41.127
N13070 X20.021 Y42.272
N13075 X20.013 Y44.564
N13080 X20.008 Y46.856
N13085 X20.004 Y50.294
N13090 X20.001 Y56.023
N13095 X20. Y72.066
N13100 X20.002 Y72.639
N13105 X20.202 Y73.767
N13110 X20.754 Y74.771
N13115 X21.526 Y75.619
N13120 X22.433 Y76.318
N13125 X23.426 Y76.891
N13130 X24.473 Y77.355
N13135 X25.556 Y77.731
N13140 X26.661 Y78.034
N13145 X27.781 Y78.278
N13150 X28.909 Y78.475
N13155 X30.044 Y78.634
N13160 X31.183 Y78.761
N13165 X32.324 Y78.863
N13170 X33.467 Y78.945
N13175 X34.611 Y79.011
N13180 X35.756 Y79.064
N13185 X36.901 Y79.106
N13190 X38.047 Y79.14
N13195 X39.192 Y79.168
N13200 X40.338 Y79.19
N13205 X41.484 Y79.207
N13210 X42.629 Y79.221
N13215 X43.775 Y79.232
N13220 X44.921 Y79.241
N13225 X46.067 Y79.249
N13230 X47.213 Y79.254
N13235 X49.505 Y79.263
N13240 X51.797 Y79.268
N13245 X55.234 Y79.273
N13250 X60.964 Y79.276
N13255 X67.839 Y79.277
N13260 X68.412 Y79.268
N13265 X69.537 Y79.051
N13270 X70.536 Y78.489
N13275 X71.376 Y77.71
N13280 X72.07 Y76.798
N13285 X72.637 Y75.802
N13290 X73.097 Y74.753
N13295 X73.469 Y73.669
N13300 X73.769 Y72.563
N13305 X74.011 Y71.443
N13310 X74.206 Y70.314
N13315 X74.363 Y69.179
N13320 X74.489 Y68.04
N13325 X74.59 Y66.898
N13330 X74.671 Y65.755
N13335 X74.737 Y64.611
N13340 X74.789 Y63.466
N13345 X74.831 Y62.321
N13350 X74.865 Y61.176
N13355 X74.892 Y60.03
N13360 X74.913 Y58.885
N13365 X74.931 Y57.739
N13370 X74.944 Y56.593
N13375 X74.956 Y55.447
N13380 X74.964 Y54.301
N13385 X74.972 Y53.155
N13390 X74.977 Y52.01
N13395 X74.986 Y49.718
N13400 X74.991 Y47.426
N13405 X74.995 Y43.988
N13410 X74.998 Y38.259
N13415 X75. Y29.092
N13420 Y26.8
N13425 X74.858 Y25.663
N13430 X74.344 Y24.638
N13435 X73.597 Y23.77
N13440 X72.705 Y23.051
N13445 X71.722 Y22.462
N13450 X70.68 Y21.984
N13455 X69.602 Y21.596
N13460 X68.499 Y21.284
N13465 X67.382 Y21.031
N13470 X66.254 Y20.828
N13475 X65.12 Y20.665
N13480 X63.981 Y20.534
N13485 X62.84 Y20.428
N13490 X61.697 Y20.343
N13495 X60.554 Y20.275
N13500 X59.409 Y20.221
N13505 X58.264 Y20.177
N13510 X57.119 Y20.142
N13515 X55.973 Y20.113
N13520 X54.827 Y20.091
N13525 X53.682 Y20.073
N13530 X52.536 Y20.058
N13535 X51.39 Y20.046
N13540 X50.244 Y20.037
N13545 X49.098 Y20.03
N13550 X47.952 Y20.024
N13555 X45.661 Y20.015
N13560 X43.369 Y20.01
N13565 X39.931 Y20.005
N13570 X34.202 Y20.002
N13575 X31.91 Y20.001
N13580 X30.769 Y20.106
N13585 X29.73 Y20.59
N13590 X28.845 Y21.319
N13595 X28.113 Y22.2
N13600 X27.513 Y23.176
N13605 X27.025 Y24.213
N13610 X26.63 Y25.289
N13615 X26.31 Y26.389
N13620 X26.053 Y27.506
N13625 X25.846 Y28.633
N13630 X25.679 Y29.766
N13635 X25.545 Y30.904
N13640 X25.437 Y32.045
N13645 X25.351 Y33.188
N13650 X25.281 Y34.332
N13655 X25.225 Y35.476
N13660 X25.18 Y36.621
N13665 X25.145 Y37.767
N13670 X25.116 Y38.912
N13675 X25.093 Y40.058
N13680 X25.074 Y41.204
N13685 X25.059 Y42.349
N13690 X25.048 Y43.495
N13695 X25.038 Y44.641
N13700 X25.03 Y45.787
N13705 X25.024 Y46.933
N13710 X25.016 Y49.225
N13715 X25.01 Y51.516
N13720 X25.005 Y54.954
N13725 X25.002 Y60.684
N13730 X25. Y67.559
N13735 X25.192 Y68.689
N13740 X25.733 Y69.699
N13745 X26.497 Y70.553
N13750 X27.399 Y71.26
N13755 X28.387 Y71.84
N13760 X29.432 Y72.311
N13765 X30.512 Y72.692
N13770 X31.616 Y73.001
N13775 X32.734 Y73.25
N13780 X33.863 Y73.451
N13785 X34.997 Y73.613
N13790 X36.135 Y73.743
N13795 X37.276 Y73.848
N13800 X38.419 Y73.932
N13805 X39.563 Y74.
N13810 X40.708 Y74.055
N13815 X41.853 Y74.099
N13820 X42.998 Y74.134
N13825 X44.144 Y74.162
N13830 X45.289 Y74.185
N13835 X46.435 Y74.203
N13840 X47.581 Y74.218
N13845 X48.727 Y74.23
N13850 X49.873 Y74.239
N13855 X51.019 Y74.247
N13860 X52.164 Y74.253
N13865 X54.456 Y74.262
N13870 X56.748 Y74.267
N13875 X60.186 Y74.272
N13880 X63.623 Y74.275
N13885 X64.727 Y73.965
N13890 X65.691 Y73.346
N13895 X66.5 Y72.534
N13900 X67.167 Y71.603
N13905 X67.712 Y70.595
N13910 X68.154 Y69.538
N13915 X68.513 Y68.449
N13920 X68.802 Y67.341
N13925 X69.036 Y66.219
N13930 X69.225 Y65.089
N13935 X69.377 Y63.953
N13940 X69.499 Y62.813
N13945 X69.598 Y61.672
N13950 X69.677 Y60.529
N13955 X69.74 Y59.384
N13960 X69.792 Y58.24
N13965 X69.833 Y57.095
N13970 X69.866 Y55.949
N13975 X69.892 Y54.804
N13980 X69.914 Y53.658
N13985 X69.931 Y52.512
N13990 X69.944 Y51.366
N13995 X69.955 Y50.22
N14000 X69.964 Y49.074
N14005 X69.971 Y47.929
N14010 X69.977 Y46.783
N14015 X69.985 Y44.491
N14020 X69.991 Y42.199
N14025 X69.995 Y38.761
N14030 X69.998 Y33.032
N14035 X69.999 Y31.886
N14040 X69.869 Y30.748
N14045 X69.368 Y29.717
N14050 X68.631 Y28.84
N14055 X67.745 Y28.112
N14060 X66.767 Y27.516
N14065 X65.729 Y27.03
N14070 X64.653 Y26.636
N14075 X63.552 Y26.318
N14080 X62.435 Y26.061
N14085 X61.308 Y25.854
N14090 X60.175 Y25.686
N14095 X59.037 Y25.552
N14100 X57.896 Y25.444
N14105 X56.753 Y25.356
N14110 X55.61 Y25.286
N14115 X54.465 Y25.23
N14120 X53.32 Y25.185
N14125 X52.175 Y25.148
N14130 X51.029 Y25.119
N14135 X49.884 Y25.095
N14140 X48.738 Y25.077
N14145 X47.592 Y25.061
N14150 X46.446 Y25.049
N14155 X45.3 Y25.04
N14160 X44.154 Y25.032
N14165 X43.009 Y25.025
N14170 X40.717 Y25.016
N14175 X38.425 Y25.01
N14180 X37.279 Y25.008
N14185 X36.133 Y25.009
N14190 X35.056 Y25.4
N14195 X34.126 Y26.069
N14200 X33.349 Y26.911
N14205 X32.71 Y27.862
N14210 X32.188 Y28.882
N14215 X31.764 Y29.947
N14220 X31.422 Y31.041
N14225 X31.145 Y32.152
N14230 X30.921 Y33.276
N14235 X30.741 Y34.408
N14240 X30.596 Y35.545
N14245 X30.479 Y36.685
N14250 X30.385 Y37.827
N14255 X30.309 Y38.97
N14260 X30.248 Y40.114
N14265 X30.199 Y41.259
N14270 X30.16 Y42.404
N14275 X30.129 Y43.55
N14280 X30.103 Y44.695
N14285 X30.083 Y45.841
N14290 X30.066 Y46.987
N14295 X30.053 Y48.133
N14300 X30.047 Y48.831
N14305 X30.046 Y48.874
N14310 X30.044 Y48.917
N14315 X30.041 Y48.96
N14320 X30.021 Y49.189
N14325 X30.016 Y49.489
N14330 Y49.788
N14335 X29.978 Y50.934
N14340 X29.984 Y52.08
N14345 X29.989 Y53.225
N14350 X29.994 Y55.517
N14355 X29.998 Y58.955
N14360 X29.999 Y62.393
N14365 X30.142 Y63.53
N14370 X30.648 Y64.558
N14375 X31.389 Y65.432
N14380 X32.275 Y66.158
N14385 X33.254 Y66.754
N14390 X34.292 Y67.239
N14395 X35.368 Y67.633
N14400 X36.469 Y67.952
N14405 X37.586 Y68.209
N14410 X38.712 Y68.417
N14415 X39.846 Y68.585
N14420 X40.984 Y68.72
N14425 X42.125 Y68.829
N14430 X43.267 Y68.917
N14435 X44.411 Y68.987
N14440 X45.555 Y69.044
N14445 X46.7 Y69.09
N14450 X47.846 Y69.127
N14455 X48.991 Y69.156
N14460 X50.137 Y69.18
N14465 X51.283 Y69.199
N14470 X52.428 Y69.214
N14475 X53.574 Y69.227
N14480 X54.72 Y69.237
N14485 X55.866 Y69.245
N14490 X57.012 Y69.251
N14495 X58.158 Y69.256
N14500 X59.293 Y69.103
N14505 X60.317 Y68.588
N14510 X61.187 Y67.843
N14515 X61.908 Y66.952
N14520 X62.499 Y65.97
N14525 X62.98 Y64.93
N14530 X63.371 Y63.853
N14535 X63.687 Y62.752
N14540 X63.943 Y61.634
N14545 X64.149 Y60.507
N14550 X64.315 Y59.373
N14555 X64.449 Y58.235
N14560 X64.556 Y57.095
N14565 X64.643 Y55.952
N14570 X64.713 Y54.808
N14575 X64.769 Y53.664
N14580 X64.814 Y52.519
N14585 X64.842 Y51.677
N14590 X64.847 Y51.609
N14595 X64.979 Y50.088
N14600 X64.984 Y49.788
N14605 Y49.489
N14610 X65.022 Y48.343
N14615 X65.014 Y47.197
N14620 X65.009 Y46.052
N14625 X65.005 Y44.906
N14630 X65.001 Y42.614
N14635 X64.999 Y39.176
N14640 Y36.884
N14645 X64.858 Y35.747
N14650 X64.352 Y34.719
N14655 X63.611 Y33.845
N14660 X62.725 Y33.119
N14665 X61.746 Y32.523
N14670 X60.708 Y32.038
N14675 X59.632 Y31.644
N14680 X58.531 Y31.326
N14685 X57.414 Y31.068
N14690 X56.287 Y30.86
N14695 X55.154 Y30.692
N14700 X54.016 Y30.557
N14705 X52.875 Y30.448
N14710 X51.733 Y30.361
N14715 X50.589 Y30.29
N14720 X49.444 Y30.233
N14725 X48.299 Y30.188
N14730 X47.154 Y30.151
N14735 X46.009 Y30.121
N14740 X44.863 Y30.097
N14745 X43.717 Y30.078
N14750 X42.571 Y30.063
N14755 X41.426 Y30.051
N14760 X40.318 Y30.345
N14765 X39.348 Y30.955
N14770 X38.533 Y31.761
N14775 X37.862 Y32.689
N14780 X37.312 Y33.695
N14785 X36.866 Y34.75
N14790 X36.562 Y35.664
N14795 X36.451 Y35.923
N14800 X36.297 Y36.16
N14805 X36.106 Y36.367
N14810 X35.966 Y36.496
N14815 X35.558 Y36.9
N14820 X34.468 Y37.989
N14825 X34.362 Y38.099
N14830 X34.101 Y38.399
N14835 X33.869 Y38.685
N14840 X33.569 Y39.106
N14845 X32.806 Y40.197
N14850 X32.671 Y40.401
N14855 X32.371 Y40.87
N14860 X32.236 Y41.096
N14865 X31.947 Y41.696
N14870 X31.472 Y42.715
N14875 X31.118 Y43.494
N14880 X30.873 Y44.265
N14885 X30.837 Y44.393
N14890 X30.436 Y45.892
N14895 X30.359 Y46.192
N14900 X30.289 Y46.491
N14905 X30.274 Y46.574
N14910 X30.239 Y46.791
N14915 X30.18 Y47.391
N14920 X30.151 Y47.69
N14925 X30.041 Y48.96
N14930 X30.027 Y49.043
N14935 X30.006 Y49.124
N14940 G02 X29.987 Y49.559 I0.864 J0.257
N14945 G01 X30.005 Y49.673
N14950 X30.016 Y49.788
N14955 X30.021 Y50.088
N14960 X30.151 Y51.587
N14965 X30.18 Y51.886
N14970 X30.239 Y52.486
N14975 X30.274 Y52.704
N14980 X30.289 Y52.786
N14985 X30.359 Y53.085
N14990 X30.436 Y53.385
N14995 X30.837 Y54.884
N15000 X30.873 Y55.012
N15005 X31.118 Y55.783
N15010 X31.472 Y56.563
N15015 X31.947 Y57.581
N15020 X32.235 Y58.181
N15025 X32.371 Y58.407
N15030 X32.671 Y58.876
N15035 X32.805 Y59.08
N15040 X33.569 Y60.171
N15045 X33.869 Y60.592
N15050 X34.101 Y60.878
N15055 X34.361 Y61.178
N15060 X34.468 Y61.288
N15065 X35.557 Y62.377
N15070 X35.966 Y62.782
N15075 X36.179 Y62.977
N15080 X36.266 Y63.051
N15085 X36.565 Y63.281
N15090 X36.865 Y63.497
N15095 X37.834 Y64.176
N15100 X38.363 Y64.543
N15105 X38.662 Y64.74
N15110 X38.719 Y64.775
N15115 X39.261 Y65.053
N15120 X39.307 Y65.075
N15125 X40.759 Y65.752
N15130 X41.059 Y65.886
N15135 X41.658 Y66.124
N15140 X41.958 Y66.218
N15145 X42.557 Y66.382
N15150 X43.456 Y66.623
N15155 X44.055 Y66.779
N15160 X44.354 Y66.844
N15165 X44.954 Y66.931
N15170 X45.253 Y66.961
N15175 X46.451 Y67.066
N15180 X46.751 Y67.091
N15185 X47.35 Y67.128
N15190 X47.65
N15195 X48.249 Y67.091
N15200 X48.549 Y67.066
N15205 X49.747 Y66.961
N15210 X50.046 Y66.931
N15215 X50.646 Y66.844
N15220 X50.945 Y66.779
N15225 X51.544 Y66.623
N15230 X52.443 Y66.382
N15235 X53.042 Y66.218
N15240 X53.342 Y66.124
N15245 X53.941 Y65.886
N15250 X54.241 Y65.752
N15255 X55.693 Y65.075
N15260 X55.739 Y65.053
N15265 X56.281 Y64.775
N15270 X56.338 Y64.74
N15275 X56.637 Y64.543
N15280 X57.237 Y64.126
N15285 X58.135 Y63.497
N15290 X58.441 Y63.276
N15295 X58.734 Y63.051
N15300 X58.821 Y62.977
N15305 X59.034 Y62.782
N15310 X59.443 Y62.377
N15315 X60.532 Y61.288
N15320 X60.639 Y61.178
N15325 X60.899 Y60.878
N15330 X61.131 Y60.592
N15335 X61.431 Y60.171
N15340 X62.195 Y59.08
N15345 X62.329 Y58.876
N15350 X62.629 Y58.407
N15355 X62.765 Y58.181
N15360 X63.053 Y57.581
N15365 X63.528 Y56.563
N15370 X63.882 Y55.783
N15375 X64.127 Y55.012
N15380 X64.163 Y54.884
N15385 X64.564 Y53.385
N15390 X64.641 Y53.085
N15395 X64.711 Y52.786
N15400 X64.726 Y52.704
N15405 X64.761 Y52.486
N15410 X64.82 Y51.886
N15415 X64.847 Y51.609
N15420 G03 X65.935 Y50.706 Z-7.8 I0.996 J0.094
N15425 X65.749 Y52.698 I-0.093 J0.996
N15430 X64.849 Y51.589 I0.093 J-0.996
N15435 G01 X65.076 Y49.599
N15440 G03 X67.063 Y49.826 I0.994 J0.113
N15445 X65.831 Y50.683 I-0.994 J-0.113
N15450 X65.219 Y50.238 Z-7.899 I0.238 J-0.971
N15455 G01 X65.211 Y50.226 Z-7.901
N15460 G03 X64.984 Y49.489 Z-8. I1.354 J-0.82 F400.
N15465 G01 X64.979 Y49.189 F800.
N15470 X64.849 Y47.69
N15475 X64.82 Y47.391
N15480 X64.761 Y46.791
N15485 X64.726 Y46.574
N15490 X64.711 Y46.491
N15495 X64.641 Y46.192
N15500 X64.564 Y45.892
N15505 X64.163 Y44.393
N15510 X64.127 Y44.265
N15515 X63.882 Y43.494
N15520 X63.528 Y42.715
N15525 X63.053 Y41.696
N15530 X62.764 Y41.096
N15535 X62.629 Y40.87
N15540 X62.329 Y40.401
N15545 X62.194 Y40.197
N15550 X61.431 Y39.106
N15555 X61.131 Y38.685
N15560 X60.899 Y38.399
N15565 X60.638 Y38.099
N15570 X60.532 Y37.989
N15575 X59.442 Y36.9
N15580 X59.034 Y36.496
N15585 X58.821 Y36.3
N15590 X58.734 Y36.226
N15595 X58.435 Y35.996
N15600 X58.135 Y35.78
N15605 X57.165 Y35.101
N15610 X56.637 Y34.735
N15615 X56.338 Y34.537
N15620 X56.281 Y34.502
N15625 X55.739 Y34.225
N15630 X55.692 Y34.202
N15635 X54.241 Y33.525
N15640 X53.941 Y33.392
N15645 X53.342 Y33.154
N15650 X53.042 Y33.059
N15655 X52.443 Y32.895
N15660 X51.544 Y32.654
N15665 X50.945 Y32.498
N15670 X50.646 Y32.434
N15675 X50.046 Y32.346
N15680 X49.747 Y32.316
N15685 X48.549 Y32.211
N15690 X48.249 Y32.186
N15695 X47.65 Y32.15
N15700 X47.35
N15705 X46.751 Y32.186
N15710 X46.451 Y32.211
N15715 X45.253 Y32.316
N15720 X44.954 Y32.346
N15725 X44.354 Y32.434
N15730 X44.055 Y32.498
N15735 X43.456 Y32.654
N15740 X42.557 Y32.895
N15745 X41.958 Y33.059
N15750 X41.658 Y33.154
N15755 X41.059 Y33.392
N15760 X40.759 Y33.525
N15765 X39.308 Y34.202
N15770 X39.261 Y34.225
N15775 X38.719 Y34.502
N15780 X38.662 Y34.537
N15785 X38.363 Y34.735
N15790 X37.763 Y35.151
N15795 X36.865 Y35.78
N15800 X36.559 Y36.001
N15805 X36.266 Y36.226
N15810 X36.179 Y36.3
N15815 X36.106 Y36.367
N15820 G03 X35.378 Y36.604 I-0.649 J-0.761
N15825 G01 X35.258 Y36.594 Z-7.993
N15830 X35.14 Y36.585 Z-7.971
N15835 X35.025 Y36.576 Z-7.935
N15840 X34.915 Y36.567 Z-7.885
N15845 X34.812 Y36.559 Z-7.823
N15850 X34.717 Y36.551 Z-7.749
N15855 X34.632 Y36.545 Z-7.663
N15860 X34.558 Y36.539 Z-7.568
N15865 X34.495 Y36.534 Z-7.465
N15870 X34.446 Y36.53 Z-7.355
N15875 X34.41 Y36.527 Z-7.239
N15880 X34.389 Y36.526 Z-7.121
N15885 X34.381 Y36.525 Z-7.
N15890 G00 Z15.

(2D CONTOUR1)
N15895 G00 X57.485 Y-7.504
N15900 Z15.
N15905 Z-3.
N15910 G01 Z-7. F400.
N15915 Z-10.
N15920 X57.484 Y-7.497 Z-10.121
N15925 X57.48 Y-7.475 Z-10.239
N15930 X57.475 Y-7.44 Z-10.355
N15935 X57.467 Y-7.391 Z-10.465
N15940 X57.457 Y-7.329 Z-10.568
N15945 X57.446 Y-7.256 Z-10.663
N15950 X57.432 Y-7.171 Z-10.749
N15955 X57.418 Y-7.077 Z-10.823
N15960 X57.402 Y-6.975 Z-10.885
N15965 X57.385 Y-6.867 Z-10.935
N15970 X57.367 Y-6.753 Z-10.971
N15975 X57.348 Y-6.635 Z-10.993
N15980 X57.33 Y-6.516 Z-11.
N15985 X57.174 Y-5.528
N15990 G03 X56.031 Y-4.696 I-0.988 J-0.155
N15995 G02 X54.1 Y-4.964 I-8.531 J54.334 F800.
N16000 X48.5 Y0. I-0.6 J4.964
N16005 G01 Y30.
N16010 G03 X46.5 I-1.
N16015 G01 Y0.
N16020 G02 X40.9 Y-4.964 I-5.
N16025 X36.248 Y-4.198 I6.6 J54.603
N16030 X32.328 Y-0.059 I1.023 J4.894
N16035 G03 X12.047 Y11.651 I-14.828 J-2.264
N16040 G02 X6.502 Y12.976 I-1.818 J4.658
N16045 X3.513 Y16.622 I40.998 J36.663
N16050 X5.012 Y23.953 I3.999 J3.002
N16055 G01 X30.992 Y38.953
N16060 G03 X29.992 Y40.685 I-0.5 J0.866
N16065 G01 X4.012 Y25.685
N16070 G02 X-3.087 Y28.053 I-2.5 J4.33
N16075 X-4.75 Y32.465 I50.587 J21.586
N16080 X-3.125 Y37.929 I4.75 J1.561
N16085 G03 Y61.348 I-9.375 J11.709
N16090 G02 X-4.75 Y66.812 I3.125 J3.903
N16095 X-3.087 Y71.224 I52.25 J-17.174
N16100 X4.012 Y73.592 I4.599 J-1.962
N16105 G01 X29.992 Y58.592
N16110 G03 X31.358 Y58.958 I0.5 J0.866
N16115 X30.992 Y60.324 I-0.866 J0.5
N16120 G01 X5.012 Y75.324
N16125 G02 X3.513 Y82.656 I2.5 J4.33
N16130 X6.502 Y86.302 I43.987 J-33.017
N16135 X12.047 Y87.627 I3.727 J-3.333
N16140 G03 X32.328 Y99.336 I5.453 J13.973
N16145 G02 X36.248 Y103.475 I4.943 J-0.755
N16150 X40.9 Y104.241 I11.253 J-53.837
N16155 X46.5 Y99.277 I0.6 J-4.964
N16160 G01 Y69.277
N16165 G03 X48.5 I1.
N16170 G01 Y99.277
N16175 G02 X54.1 Y104.241 I5.
N16180 X58.752 Y103.475 I-6.601 J-54.602
N16185 X62.672 Y99.336 I-1.023 J-4.894
N16190 G03 X82.953 Y87.627 I14.828 J2.264
N16195 G02 X88.498 Y86.302 I1.818 J-4.658
N16200 X91.487 Y82.656 I-40.998 J-36.663
N16205 X89.988 Y75.324 I-3.999 J-3.002
N16210 G01 X64.008 Y60.324
N16215 G03 X63.642 Y58.958 I0.5 J-0.866
N16220 X65.008 Y58.592 I0.866 J0.5
N16225 G01 X90.988 Y73.592
N16230 G02 X98.087 Y71.224 I2.5 J-4.33
N16235 X99.75 Y66.812 I-50.587 J-21.585
N16240 X98.125 Y61.348 I-4.75 J-1.561
N16245 G03 Y37.929 I9.375 J-11.709
N16250 G02 X99.75 Y32.465 I-3.125 J-3.903
N16255 X98.087 Y28.053 I-52.25 J17.173
N16260 X90.988 Y25.685 I-4.599 J1.962
N16265 G01 X65.008 Y40.685
N16270 G03 X64.008 Y38.953 I-0.5 J-0.866
N16275 G01 X89.988 Y23.953
N16280 G02 X91.487 Y16.622 I-2.5 J-4.33
N16285 X88.498 Y12.976 I-43.987 J33.017
N16290 X82.953 Y11.651 I-3.727 J3.333
N16295 G03 X62.672 Y-0.059 I-5.453 J-13.974
N16300 G02 X58.752 Y-4.198 I-4.943 J0.755
N16305 X56.031 Y-4.696 I-11.252 J53.837
N16310 G03 X55.199 Y-5.839 I0.155 J-0.988
N16315 G01 X55.354 Y-6.826
N16320 X55.373 Y-6.946 Z-10.993
N16325 X55.391 Y-7.063 Z-10.971
N16330 X55.409 Y-7.177 Z-10.935
N16335 X55.426 Y-7.286 Z-10.885
N16340 X55.442 Y-7.388 Z-10.823
N16345 X55.457 Y-7.482 Z-10.749
N16350 X55.47 Y-7.566 Z-10.663
N16355 X55.481 Y-7.64 Z-10.568
N16360 X55.491 Y-7.701 Z-10.465
N16365 X55.499 Y-7.75 Z-10.355
N16370 X55.504 Y-7.786 Z-10.239
N16375 X55.508 Y-7.807 Z-10.121
N16380 X55.509 Y-7.814 Z-10.
N16385 G00 Z5.
N16390 X57.485 Y-7.504
N16395 Z-3.
N16400 G01 Z-10. F400.
N16405 Z-13.
N16410 X57.484 Y-7.497 Z-13.121
N16415 X57.48 Y-7.475 Z-13.239
N16420 X57.475 Y-7.44 Z-13.355
N16425 X57.467 Y-7.391 Z-13.465
N16430 X57.457 Y-7.329 Z-13.568
N16435 X57.446 Y-7.256 Z-13.663
N16440 X57.432 Y-7.171 Z-13.749
N16445 X57.418 Y-7.077 Z-13.823
N16450 X57.402 Y-6.975 Z-13.885
N16455 X57.385 Y-6.867 Z-13.935
N16460 X57.367 Y-6.753 Z-13.971
N16465 X57.348 Y-6.635 Z-13.993
N16470 X57.33 Y-6.516 Z-14.
N16475 X57.174 Y-5.528
N16480 G03 X56.031 Y-4.696 I-0.988 J-0.155
N16485 G02 X54.1 Y-4.964 I-8.531 J54.334 F800.
N16490 X48.5 Y0. I-0.6 J4.964
N16495 G01 Y30.
N16500 G03 X46.5 I-1.
N16505 G01 Y0.
N16510 G02 X40.9 Y-4.964 I-5.
N16515 X36.248 Y-4.198 I6.6 J54.603
N16520 X32.328 Y-0.059 I1.023 J4.894
N16525 G03 X12.047 Y11.651 I-14.828 J-2.264
N16530 G02 X6.502 Y12.976 I-1.818 J4.658
N16535 X3.513 Y16.622 I40.998 J36.663
N16540 X5.012 Y23.953 I3.999 J3.002
N16545 G01 X30.992 Y38.953
N16550 G03 X29.992 Y40.685 I-0.5 J0.866
N16555 G01 X4.012 Y25.685
N16560 G02 X-3.087 Y28.053 I-2.5 J4.33
N16565 X-4.75 Y32.465 I50.587 J21.586
N16570 X-3.125 Y37.929 I4.75 J1.561
N16575 G03 Y61.348 I-9.375 J11.709
N16580 G02 X-4.75 Y66.812 I3.125 J3.903
N16585 X-3.087 Y71.224 I52.25 J-17.174
N16590 X4.012 Y73.592 I4.599 J-1.962
N16595 G01 X29.992 Y58.592
N16600 G03 X31.358 Y58.958 I0.5 J0.866
N16605 X30.992 Y60.324 I-0.866 J0.5
N16610 G01 X5.012 Y75.324
N16615 G02 X3.513 Y82.656 I2.5 J4.33
N16620 X6.502 Y86.302 I43.987 J-33.017
N16625 X12.047 Y87.627 I3.727 J-3.333
N16630 G03 X32.328 Y99.336 I5.453 J13.973
N16635 G02 X36.248 Y103.475 I4.943 J-0.755
N16640 X40.9 Y104.241 I11.253 J-53.837
N16645 X46.5 Y99.277 I0.6 J-4.964
N16650 G01 Y69.277
N16655 G03 X48.5 I1.
N16660 G01 Y99.277
N16665 G02 X54.1 Y104.241 I5.
N16670 X58.752 Y103.475 I-6.601 J-54.602
N16675 X62.672 Y99.336 I-1.023 J-4.894
N16680 G03 X82.953 Y87.627 I14.828 J2.264
N16685 G02 X88.498 Y86.302 I1.818 J-4.658
N16690 X91.487 Y82.656 I-40.998 J-36.663
N16695 X89.988 Y75.324 I-3.999 J-3.002
N16700 G01 X64.008 Y60.324
N16705 G03 X63.642 Y58.958 I0.5 J-0.866
N16710 X65.008 Y58.592 I0.866 J0.5
N16715 G01 X90.988 Y73.592
N16720 G02 X98.087 Y71.224 I2.5 J-4.33
N16725 X99.75 Y66.812 I-50.587 J-21.585
N16730 X98.125 Y61.348 I-4.75 J-1.561
N16735 G03 Y37.929 I9.375 J-11.709
N16740 G02 X99.75 Y32.465 I-3.125 J-3.903
N16745 X98.087 Y28.053 I-52.25 J17.173
N16750 X90.988 Y25.685 I-4.599 J1.962
N16755 G01 X65.008 Y40.685
N16760 G03 X64.008 Y38.953 I-0.5 J-0.866
N16765 G01 X89.988 Y23.953
N16770 G02 X91.487 Y16.622 I-2.5 J-4.33
N16775 X88.498 Y12.976 I-43.987 J33.017
N16780 X82.953 Y11.651 I-3.727 J3.333
N16785 G03 X62.672 Y-0.059 I-5.453 J-13.974
N16790 G02 X58.752 Y-4.198 I-4.943 J0.755
N16795 X56.031 Y-4.696 I-11.252 J53.837
N16800 G03 X55.199 Y-5.839 I0.155 J-0.988
N16805 G01 X55.354 Y-6.826
N16810 X55.373 Y-6.946 Z-13.993
N16815 X55.391 Y-7.063 Z-13.971
N16820 X55.409 Y-7.177 Z-13.935
N16825 X55.426 Y-7.286 Z-13.885
N16830 X55.442 Y-7.388 Z-13.823
N16835 X55.457 Y-7.482 Z-13.749
N16840 X55.47 Y-7.566 Z-13.663
N16845 X55.481 Y-7.64 Z-13.568
N16850 X55.491 Y-7.701 Z-13.465
N16855 X55.499 Y-7.75 Z-13.355
N16860 X55.504 Y-7.786 Z-13.239
N16865 X55.508 Y-7.807 Z-13.121
N16870 X55.509 Y-7.814 Z-13.
N16875 G00 Z5.
N16880 X57.485 Y-7.504
N16885 Z-3.
N16890 G01 Z-13. F400.
N16895 Z-16.
N16900 X57.484 Y-7.497 Z-16.121
N16905 X57.48 Y-7.475 Z-16.239
N16910 X57.475 Y-7.44 Z-16.355
N16915 X57.467 Y-7.391 Z-16.465
N16920 X57.457 Y-7.329 Z-16.568
N16925 X57.446 Y-7.256 Z-16.663
N16930 X57.432 Y-7.171 Z-16.749
N16935 X57.418 Y-7.077 Z-16.823
N16940 X57.402 Y-6.975 Z-16.885
N16945 X57.385 Y-6.867 Z-16.935
N16950 X57.367 Y-6.753 Z-16.971
N16955 X57.348 Y-6.635 Z-16.993
N16960 X57.33 Y-6.516 Z-17.
N16965 X57.174 Y-5.528
N16970 G03 X56.031 Y-4.696 I-0.988 J-0.155
N16975 G02 X54.1 Y-4.964 I-8.531 J54.334 F800.
N16980 X48.5 Y0. I-0.6 J4.964
N16985 G01 Y30.
N16990 G03 X46.5 I-1.
N16995 G01 Y0.
N17000 G02 X40.9 Y-4.964 I-5.
N17005 X36.248 Y-4.198 I6.6 J54.603
N17010 X32.328 Y-0.059 I1.023 J4.894
N17015 G03 X12.047 Y11.651 I-14.828 J-2.264
N17020 G02 X6.502 Y12.976 I-1.818 J4.658
N17025 X3.513 Y16.622 I40.998 J36.663
N17030 X5.012 Y23.953 I3.999 J3.002
N17035 G01 X30.992 Y38.953
N17040 G03 X29.992 Y40.685 I-0.5 J0.866
N17045 G01 X4.012 Y25.685
N17050 G02 X-3.087 Y28.053 I-2.5 J4.33
N17055 X-4.75 Y32.465 I50.587 J21.586
N17060 X-3.125 Y37.929 I4.75 J1.561
N17065 G03 Y61.348 I-9.375 J11.709
N17070 G02 X-4.75 Y66.812 I3.125 J3.903
N17075 X-3.087 Y71.224 I52.25 J-17.174
N17080 X4.012 Y73.592 I4.599 J-1.962
N17085 G01 X29.992 Y58.592
N17090 G03 X31.358 Y58.958 I0.5 J0.866
N17095 X30.992 Y60.324 I-0.866 J0.5
N17100 G01 X5.012 Y75.324
N17105 G02 X3.513 Y82.656 I2.5 J4.33
N17110 X6.502 Y86.302 I43.987 J-33.017
N17115 X12.047 Y87.627 I3.727 J-3.333
N17120 G03 X32.328 Y99.336 I5.453 J13.973
N17125 G02 X36.248 Y103.475 I4.943 J-0.755
N17130 X40.9 Y104.241 I11.253 J-53.837
N17135 X46.5 Y99.277 I0.6 J-4.964
N17140 G01 Y69.277
N17145 G03 X48.5 I1.
N17150 G01 Y99.277
N17155 G02 X54.1 Y104.241 I5.
N17160 X58.752 Y103.475 I-6.601 J-54.602
N17165 X62.672 Y99.336 I-1.023 J-4.894
N17170 G03 X82.953 Y87.627 I14.828 J2.264
N17175 G02 X88.498 Y86.302 I1.818 J-4.658
N17180 X91.487 Y82.656 I-40.998 J-36.663
N17185 X89.988 Y75.324 I-3.999 J-3.002
N17190 G01 X64.008 Y60.324
N17195 G03 X63.642 Y58.958 I0.5 J-0.866
N17200 X65.008 Y58.592 I0.866 J0.5
N17205 G01 X90.988 Y73.592
N17210 G02 X98.087 Y71.224 I2.5 J-4.33
N17215 X99.75 Y66.812 I-50.587 J-21.585
N17220 X98.125 Y61.348 I-4.75 J-1.561
N17225 G03 Y37.929 I9.375 J-11.709
N17230 G02 X99.75 Y32.465 I-3.125 J-3.903
N17235 X98.087 Y28.053 I-52.25 J17.173
N17240 X90.988 Y25.685 I-4.599 J1.962
N17245 G01 X65.008 Y40.685
N17250 G03 X64.008 Y38.953 I-0.5 J-0.866
N17255 G01 X89.988 Y23.953
N17260 G02 X91.487 Y16.622 I-2.5 J-4.33
N17265 X88.498 Y12.976 I-43.987 J33.017
N17270 X82.953 Y11.651 I-3.727 J3.333
N17275 G03 X62.672 Y-0.059 I-5.453 J-13.974
N17280 G02 X58.752 Y-4.198 I-4.943 J0.755
N17285 X56.031 Y-4.696 I-11.252 J53.837
N17290 G03 X55.199 Y-5.839 I0.155 J-0.988
N17295 G01 X55.354 Y-6.826
N17300 X55.373 Y-6.946 Z-16.993
N17305 X55.391 Y-7.063 Z-16.971
N17310 X55.409 Y-7.177 Z-16.935
N17315 X55.426 Y-7.286 Z-16.885
N17320 X55.442 Y-7.388 Z-16.823
N17325 X55.457 Y-7.482 Z-16.749
N17330 X55.47 Y-7.566 Z-16.663
N17335 X55.481 Y-7.64 Z-16.568
N17340 X55.491 Y-7.701 Z-16.465
N17345 X55.499 Y-7.75 Z-16.355
N17350 X55.504 Y-7.786 Z-16.239
N17355 X55.508 Y-7.807 Z-16.121
N17360 X55.509 Y-7.814 Z-16.
N17365 G00 Z5.
N17370 X57.485 Y-7.504
N17375 Z-3.
N17380 G01 Z-16. F400.
N17385 Z-17.
N17390 X57.484 Y-7.497 Z-17.121
N17395 X57.48 Y-7.475 Z-17.239
N17400 X57.475 Y-7.44 Z-17.355
N17405 X57.467 Y-7.391 Z-17.465
N17410 X57.457 Y-7.329 Z-17.568
N17415 X57.446 Y-7.256 Z-17.663
N17420 X57.432 Y-7.171 Z-17.749
N17425 X57.418 Y-7.077 Z-17.823
N17430 X57.402 Y-6.975 Z-17.885
N17435 X57.385 Y-6.867 Z-17.935
N17440 X57.367 Y-6.753 Z-17.971
N17445 X57.348 Y-6.635 Z-17.993
N17450 X57.33 Y-6.516 Z-18.
N17455 X57.174 Y-5.528
N17460 G03 X56.031 Y-4.696 I-0.988 J-0.155
N17465 G02 X54.1 Y-4.964 I-8.531 J54.334 F800.
N17470 X48.5 Y0. I-0.6 J4.964
N17475 G01 Y30.
N17480 G03 X46.5 I-1.
N17485 G01 Y0.
N17490 G02 X40.9 Y-4.964 I-5.
N17495 X36.248 Y-4.198 I6.6 J54.603
N17500 X32.328 Y-0.059 I1.023 J4.894
N17505 G03 X12.047 Y11.651 I-14.828 J-2.264
N17510 G02 X6.502 Y12.976 I-1.818 J4.658
N17515 X3.513 Y16.622 I40.998 J36.663
N17520 X5.012 Y23.953 I3.999 J3.002
N17525 G01 X30.992 Y38.953
N17530 G03 X29.992 Y40.685 I-0.5 J0.866
N17535 G01 X4.012 Y25.685
N17540 G02 X-3.087 Y28.053 I-2.5 J4.33
N17545 X-4.75 Y32.465 I50.587 J21.586
N17550 X-3.125 Y37.929 I4.75 J1.561
N17555 G03 Y61.348 I-9.375 J11.709
N17560 G02 X-4.75 Y66.812 I3.125 J3.903
N17565 X-3.087 Y71.224 I52.25 J-17.174
N17570 X4.012 Y73.592 I4.599 J-1.962
N17575 G01 X29.992 Y58.592
N17580 G03 X31.358 Y58.958 I0.5 J0.866
N17585 X30.992 Y60.324 I-0.866 J0.5
N17590 G01 X5.012 Y75.324
N17595 G02 X3.513 Y82.656 I2.5 J4.33
N17600 X6.502 Y86.302 I43.987 J-33.017
N17605 X12.047 Y87.627 I3.727 J-3.333
N17610 G03 X32.328 Y99.336 I5.453 J13.973
N17615 G02 X36.248 Y103.475 I4.943 J-0.755
N17620 X40.9 Y104.241 I11.253 J-53.837
N17625 X46.5 Y99.277 I0.6 J-4.964
N17630 G01 Y69.277
N17635 G03 X48.5 I1.
N17640 G01 Y99.277
N17645 G02 X54.1 Y104.241 I5.
N17650 X58.752 Y103.475 I-6.601 J-54.602
N17655 X62.672 Y99.336 I-1.023 J-4.894
N17660 G03 X82.953 Y87.627 I14.828 J2.264
N17665 G02 X88.498 Y86.302 I1.818 J-4.658
N17670 X91.487 Y82.656 I-40.998 J-36.663
N17675 X89.988 Y75.324 I-3.999 J-3.002
N17680 G01 X64.008 Y60.324
N17685 G03 X63.642 Y58.958 I0.5 J-0.866
N17690 X65.008 Y58.592 I0.866 J0.5
N17695 G01 X90.988 Y73.592
N17700 G02 X98.087 Y71.224 I2.5 J-4.33
N17705 X99.75 Y66.812 I-50.587 J-21.585
N17710 X98.125 Y61.348 I-4.75 J-1.561
N17715 G03 Y37.929 I9.375 J-11.709
N17720 G02 X99.75 Y32.465 I-3.125 J-3.903
N17725 X98.087 Y28.053 I-52.25 J17.173
N17730 X90.988 Y25.685 I-4.599 J1.962
N17735 G01 X65.008 Y40.685
N17740 G03 X64.008 Y38.953 I-0.5 J-0.866
N17745 G01 X89.988 Y23.953
N17750 G02 X91.487 Y16.622 I-2.5 J-4.33
N17755 X88.498 Y12.976 I-43.987 J33.017
N17760 X82.953 Y11.651 I-3.727 J3.333
N17765 G03 X62.672 Y-0.059 I-5.453 J-13.974
N17770 G02 X58.752 Y-4.198 I-4.943 J0.755
N17775 X56.031 Y-4.696 I-11.252 J53.837
N17780 G03 X55.199 Y-5.839 I0.155 J-0.988
N17785 G01 X55.354 Y-6.826
N17790 X55.373 Y-6.946 Z-17.993
N17795 X55.391 Y-7.063 Z-17.971
N17800 X55.409 Y-7.177 Z-17.935
N17805 X55.426 Y-7.286 Z-17.885
N17810 X55.442 Y-7.388 Z-17.823
N17815 X55.457 Y-7.482 Z-17.749
N17820 X55.47 Y-7.566 Z-17.663
N17825 X55.481 Y-7.64 Z-17.568
N17830 X55.491 Y-7.701 Z-17.465
N17835 X55.499 Y-7.75 Z-17.355
N17840 X55.504 Y-7.786 Z-17.239
N17845 X55.508 Y-7.807 Z-17.121
N17850 X55.509 Y-7.814 Z-17.
N17855 G00 Z15.

N17860 G28 G91 Z0.
N17865 G90
N17870 G49
N17875 G28 G91 X0. Y0.
N17880 G90
N17885 M30
%
